(MACH3)
(clock face)
G21(mm) G90(ABSOLUTE PROGRAMMING)G64(DEFAULT CUTTING)G17(XY PLANE)G40(CANCEL RADIUS COMP.)G49(CANCEL LENGTH COMP.)
G0Z9.525

(*** LAYER:  ***)
T1M6
S6000

(* SHAPE NR: 36 *)
G0X25.5949Y22.3596
M3M8
G41
F400
G1X26.0763Y21.9265
G3X26.2318Y22.9927I-.4553J.6109
G0Z1.905
F150
G1Z-.9525
F400
G3X23.3134Y25.9753I-12.4943J-9.3072
G1X24.7726Y25.9753
G1X26.2318Y25.9753
G1X26.2318Y24.4843
G1X26.2318Y22.9927
F150
G1Z-1.905
F400
G3X23.3134Y25.9753I-12.4943J-9.3072
G1X24.7726Y25.9753
G1X26.2318Y25.9753
G1X26.2318Y24.4843
G1X26.2318Y22.9927
F150
G1Z1.905
G0Z9.525
G40
M9M5

(* SHAPE NR: 8 *)
G0X-22.9419Y25.3524
M3M8
G41
F400
G1X-22.5488Y25.8674
G3X-23.6239Y25.9366I-.5728J-.5029
G0Z1.905
F150
G1Z-.9525
F400
G3X-26.4782Y23.0181I17.7762J-20.2412
G1X-26.4782Y24.471
G1X-26.4782Y25.9239
G1X-25.0514Y25.9302
G1X-23.6239Y25.9366
F150
G1Z-1.905
F400
G3X-26.4782Y23.0181I17.7762J-20.2412
G1X-26.4782Y24.471
G1X-26.4782Y25.9239
G1X-25.0514Y25.9302
G1X-23.6239Y25.9366
F150
G1Z1.905
G0Z9.525
G40
M9M5

(* SHAPE NR: 89 *)
G0X-25.3276Y39.2398
M3M8
G42
F400
G1X-24.7498Y39.5319
G2X-24.878Y38.4619I-.5994J-.4706
G0Z1.905
F150
G1Z-.9525
F400
G1X-24.9498Y38.4054
G1X-25.0215Y38.3489
G1X-25.099Y38.2949
G1X-25.1765Y38.2403
G1X-25.2571Y38.1908
G1X-25.3378Y38.1419
G1X-25.4197Y38.1013
G1X-25.501Y38.0606
G1X-25.5651Y38.0429
G1X-25.6286Y38.0257
G1X-25.6629Y38.0238
G1X-25.6978Y38.0219
G1X-25.7315Y38.0251
G1X-25.7658Y38.0283
G1X-25.7988Y38.0365
G1X-25.8318Y38.0448
G1X-25.8617Y38.0587
G1X-25.8915Y38.0727
G1X-25.9175Y38.093
G1X-25.9436Y38.1127
G1X-25.9645Y38.1387
G1X-25.9855Y38.1654
G1X-26.0026Y38.2105
G1X-26.0204Y38.2556
G1X-26.0223Y38.3032
G1X-26.0242Y38.3508
G1X-26.0147Y38.3991
G1X-26.0045Y38.4473
G1X-25.9861Y38.4956
G1X-25.9677Y38.5445
G1X-25.9175Y38.6379
G1X-25.8674Y38.7312
G1X-25.8223Y38.8125
G1X-25.7772Y38.8944
G3X-22.9222Y48.0898I-8.2963J7.6168
G1X-22.9317Y48.1933
G1X-22.9413Y48.2962
G1X-22.9565Y48.3984
G1X-22.9718Y48.5
G1X-23.0137Y48.7026
G1X-23.0556Y48.9045
G1X-23.1083Y49.1039
G1X-23.1604Y49.3039
G1X-23.2162Y49.5033
G1X-23.2715Y49.7021
G1X-23.3318Y49.9319
G1X-23.3928Y50.1618
G1X-23.4169Y50.278
G1X-23.441Y50.3942
G1X-23.4575Y50.5123
G1X-23.4734Y50.6305
G1X-23.4855Y50.7092
G1X-23.4969Y50.7886
G1X-23.5159Y50.8661
G1X-23.5344Y50.9429
G1X-23.5598Y51.0184
G1X-23.5852Y51.094
G1X-23.6163Y51.1677
G1X-23.6468Y51.2413
G1X-23.7211Y51.3829
G1X-23.796Y51.5245
G1X-23.8811Y51.6598
G1X-23.9668Y51.7944
G1X-24.0303Y51.8903
G1X-24.0938Y51.9862
G1X-24.1548Y52.0852
G1X-24.2157Y52.1837
G1X-24.2703Y52.2859
G1X-24.3249Y52.3875
G1X-24.3707Y52.4935
G1X-24.4164Y52.5996
G1X-24.4849Y52.7565
G1X-24.5529Y52.9127
G1X-24.6304Y53.0644
G1X-24.7085Y53.2168
G1X-24.7853Y53.3686
G1X-24.8622Y53.5197
G1X-24.8965Y53.5978
G1X-24.9307Y53.6753
G1X-24.9606Y53.7547
G1X-24.9904Y53.8347
G1X-25.2463Y54.0264
G1X-25.5022Y54.2182
G1X-25.7499Y54.4208
G1X-25.9975Y54.6227
G1X-26.4808Y55.0424
G1X-26.964Y55.4615
G1X-26.997Y55.5015
G1X-27.0301Y55.5409
G1X-27.0497Y55.5886
G1X-27.0694Y55.6368
G1X-27.0732Y55.6876
G1X-27.0777Y55.7384
G1X-27.0726Y55.7638
G1X-27.0681Y55.7886
G1X-27.0586Y55.8133
G1X-27.0491Y55.8374
G1X-27.0269Y55.8743
G1X-27.0047Y55.9111
G1X-26.978Y55.9441
G1X-26.9513Y55.9771
G1X-26.8872Y56.0331
G1X-26.8237Y56.0889
G1X-26.7494Y56.1321
G1X-26.6757Y56.1753
G1X-26.597Y56.2083
G1X-26.5182Y56.2413
G1X-26.4439Y56.2629
G1X-26.3696Y56.2845
G1X-26.2934Y56.2953
G1X-26.2166Y56.3061
G1X-26.1398Y56.3023
G1X-26.0629Y56.2985
G1X-26.0255Y56.2896
G1X-25.988Y56.2813
G1X-25.9512Y56.2673
G1X-25.915Y56.2534
G1X-25.8832Y56.2432
G1X-25.8521Y56.2324
G1X-25.8197Y56.2286
G1X-25.788Y56.2242
G1X-25.7226Y56.2305
G1X-25.6572Y56.2369
G1X-25.5918Y56.254
G1X-25.527Y56.2712
G1X-25.4648Y56.2909
G1X-25.4025Y56.3099
G1X-25.3435Y56.327
G1X-25.2844Y56.3442
G1X-25.2228Y56.3588
G1X-25.1612Y56.3727
G1X-25.099Y56.3759
G1X-25.0374Y56.3791
G1X-25.0069Y56.3734
G1X-24.9771Y56.3677
G1X-24.9473Y56.3563
G1X-24.918Y56.3448
G1X-24.8584Y56.4121
G1X-24.7987Y56.4801
G1X-24.7491Y56.5537
G1X-24.6996Y56.6274
G1X-24.6583Y56.7055
G1X-24.6177Y56.7842
G1X-24.5847Y56.8668
G1X-24.5516Y56.9487
G1X-24.5262Y57.0345
G1X-24.5002Y57.1195
G1X-24.4805Y57.2071
G1X-24.4608Y57.2941
G1X-24.4469Y57.3824
G1X-24.4329Y57.4713
G1X-24.4227Y57.5596
G1X-24.4132Y57.6479
G1X-24.4024Y57.7323
G1X-24.391Y57.8167
G1X-24.3732Y57.8999
G1X-24.3548Y57.9837
G1X-24.33Y58.0657
G1X-24.3046Y58.1476
G1X-24.2729Y58.227
G1X-24.2405Y58.3057
G1X-24.2017Y58.3819
G1X-24.163Y58.4581
G1X-24.1173Y58.5305
G1X-24.0716Y58.6029
G1X-24.0189Y58.6702
G1X-23.9662Y58.7375
G1X-23.9071Y58.7997
G1X-23.8481Y58.8613
G1X-23.7318Y58.9839
G1X-23.6157Y59.1058
G1X-23.502Y59.2315
G1X-23.3877Y59.3573
G1X-23.3261Y59.41
G1X-23.2639Y59.4627
G1X-23.1915Y59.5014
G1X-23.1191Y59.5401
G1X-23.0918Y59.5471
G1X-23.0651Y59.5547
G1X-23.0378Y59.5554
G1X-23.0105Y59.556
G1X-22.9838Y59.5509
G1X-22.9571Y59.5459
G1X-22.9324Y59.5357
G1X-22.907Y59.5256
G1X-22.8841Y59.5103
G1X-22.8613Y59.4957
G1X-22.8416Y59.4767
G1X-22.8219Y59.4576
G1X-22.806Y59.4354
G1X-22.7908Y59.4132
G1X-22.78Y59.3877
G1X-22.7686Y59.363
G1X-22.7438Y59.2671
G1X-22.719Y59.1712
G1X-22.7044Y59.0728
G1X-22.6892Y58.975
G1X-22.6841Y58.8759
G1X-22.6784Y58.7769
G1X-22.6828Y58.6778
G1X-22.6866Y58.5788
G1X-22.7Y58.4803
G1X-22.7127Y58.3819
G1X-22.7349Y58.2854
G1X-22.7571Y58.1882
G1X-22.7882Y58.0942
G1X-22.8194Y58.0003
G1X-22.8587Y57.9095
G1X-22.8981Y57.8186
G1X-22.954Y57.6872
G1X-23.0099Y57.5551
G1X-23.0511Y57.4174
G1X-23.0918Y57.2795
G1X-23.1159Y57.1379
G1X-23.1401Y56.9963
G1X-23.1451Y56.9252
G1X-23.1496Y56.8541
G1X-23.1502Y56.783
G1X-23.1502Y56.7118
G1X-23.1432Y56.6318
G1X-23.1362Y56.5518
G1X-23.1178Y56.4731
G1X-23.1Y56.3943
G1X-23.0854Y56.3575
G1X-23.0708Y56.3207
G1X-23.0524Y56.2864
G1X-23.0333Y56.2521
G1X-23.0099Y56.2204
G1X-22.9863Y56.1892
G1X-22.9571Y56.1619
G1X-22.9286Y56.1353
G1X-22.8733Y56.101
G1X-22.8181Y56.0667
G1X-22.7565Y56.0445
G1X-22.6956Y56.0229
G1X-22.6308Y56.0134
G1X-22.5666Y56.0038
G1X-22.5012Y56.0064
G1X-22.4364Y56.0095
G1X-22.3742Y56.0254
G1X-22.312Y56.0413
G1X-22.2555Y56.0699
G1X-22.1983Y56.0984
G1X-22.1501Y56.1397
G1X-22.1018Y56.1816
G1X-22.0644Y56.2362
G1X-22.0275Y56.2909
G1X-21.997Y56.3353
G1X-21.9666Y56.3791
G1X-21.9247Y56.4109
G1X-21.8821Y56.442
G1X-21.8326Y56.4585
G1X-21.783Y56.475
G1X-21.731Y56.4737
G1X-21.6789Y56.4725
G1X-21.6446Y56.4254
G1X-21.611Y56.3785
G1X-21.5818Y56.3283
G1X-21.5525Y56.2788
G1X-21.5056Y56.1734
G1X-21.4579Y56.068
G1X-21.4224Y55.9568
G1X-21.3862Y55.8464
G1X-21.3576Y55.7352
G1X-21.329Y55.6235
G1X-21.2884Y55.4774
G1X-21.2471Y55.332
G1X-21.2211Y55.2603
G1X-21.1944Y55.1885
G1X-21.1626Y55.1193
G1X-21.1309Y55.0501
G1X-21.0928Y54.9853
G1X-21.0547Y54.9199
G1X-21.0096Y54.8602
G1X-20.9645Y54.8005
G1X-20.9112Y54.7472
G1X-20.8585Y54.6938
G1X-20.7962Y54.6481
G1X-20.734Y54.603
G1X-20.6565Y54.5262
G1X-20.5791Y54.4493
G1X-20.5156Y54.3744
G1X-20.4521Y54.3001
G1X-20.4019Y54.2271
G1X-20.3517Y54.1541
G1X-20.3143Y54.083
G1X-20.2768Y54.0118
G1X-20.2514Y53.9426
G1X-20.226Y53.8727
G1X-20.2114Y53.8048
G1X-20.1968Y53.7369
G1X-20.193Y53.6702
G1X-20.1892Y53.6035
G1X-20.1949Y53.5375
G1X-20.2006Y53.4721
G1X-20.2159Y53.4073
G1X-20.2305Y53.3432
G1X-20.254Y53.2797
G1X-20.2775Y53.2162
G1X-20.3079Y53.1533
G1X-20.3391Y53.0905
G1X-20.3765Y53.0282
G1X-20.4146Y52.966
G1X-20.4584Y52.9044
G1X-20.5023Y52.8428
G1X-20.5518Y52.7812
G1X-20.6013Y52.7202
G1X-20.7137Y52.5983
G1X-20.8261Y52.4764
G1X-20.9093Y52.3805
G1X-20.9931Y52.2853
G1X-21.063Y52.1837
G1X-21.1328Y52.0821
G1X-21.1906Y51.9754
G1X-21.2477Y51.8687
G1X-21.2934Y51.7576
G1X-21.3398Y51.6458
G1X-21.3754Y51.5309
G1X-21.4109Y51.4153
G1X-21.4382Y51.2966
G1X-21.4649Y51.1778
G1X-21.4846Y51.0559
G1X-21.5036Y50.9346
G1X-21.5163Y50.8108
G1X-21.5297Y50.687
G1X-21.5411Y50.4355
G1X-21.5525Y50.1841
G1X-21.5532Y49.9313
G1X-21.5538Y49.6786
G1X-21.5532Y49.4297
G1X-21.5532Y49.1801
G1X-21.5621Y48.9394
G1X-21.5703Y48.6994
G1X-21.5709Y48.5756
G1X-21.5709Y48.4518
G1X-21.557Y48.3273
G1X-21.543Y48.2029
G1X-21.5176Y48.0778
G1X-21.4928Y47.9527
G1X-21.4598Y47.8269
G1X-21.4274Y47.7012
G1X-21.3531Y47.4485
G1X-21.2782Y47.1951
G1X-21.2433Y47.0681
G1X-21.2084Y46.9411
G1X-21.1791Y46.8141
G1X-21.15Y46.6871
G1X-21.1264Y46.5931
G1X-21.1023Y46.4991
G1X-21.0687Y46.4103
G1X-21.0344Y46.322
G1X-20.9905Y46.2394
G1X-20.9468Y46.1563
G1X-20.8934Y46.0794
G1X-20.8401Y46.0026
G1X-20.7766Y45.9321
G1X-20.7137Y45.861
G1X-20.6407Y45.7968
G1X-20.5683Y45.7327
G1X-20.4857Y45.6749
G1X-20.4038Y45.6171
G1X-20.3124Y45.567
G1X-20.2209Y45.5162
G1X-20.1486Y45.4882
G1X-20.0755Y45.4603
G1X-20.0057Y45.4482
G1X-19.9358Y45.4361
G1X-19.8685Y45.4374
G1X-19.8012Y45.438
G1X-19.7352Y45.4501
G1X-19.6691Y45.4622
G1X-19.6037Y45.4819
G1X-19.5389Y45.5022
G1X-19.4736Y45.5276
G1X-19.4081Y45.553
G1X-19.2754Y45.6114
G1X-19.1421Y45.6692
G1X-19.0506Y45.7124
G1X-18.9592Y45.7562
G1X-18.8728Y45.807
G1X-18.7858Y45.8584
G1X-18.7039Y45.9169
G1X-18.622Y45.9753
G1X-18.5458Y46.0407
G1X-18.4696Y46.1054
G1X-18.3991Y46.1766
G1X-18.3286Y46.2477
G1X-18.2645Y46.3245
G1X-18.2004Y46.4013
G1X-18.1426Y46.4827
G1X-18.0854Y46.5639
G1X-18.0353Y46.6497
G1X-17.9851Y46.7354
G1X-17.9426Y46.8242
G1X-17.9Y46.9138
G1X-17.8657Y47.0059
G1X-17.8314Y47.0986
G1X-17.8054Y47.1932
G1X-17.78Y47.2878
G1X-17.7635Y47.3843
G1X-17.7463Y47.4809
G1X-17.7394Y47.5787
G1X-17.7317Y47.6771
G1X-17.7343Y47.7755
G1X-17.7368Y47.8739
G1X-17.7502Y47.9723
G1X-17.7628Y48.0708
G1X-17.787Y48.1686
G1X-17.8105Y48.2663
G1X-17.8397Y48.3946
G1X-17.8683Y48.5235
G1X-17.8797Y48.6569
G1X-17.8911Y48.7909
G1X-17.8841Y48.9255
G1X-17.8778Y49.0601
G1X-17.8676Y49.1268
G1X-17.8575Y49.1935
G1X-17.8422Y49.2589
G1X-17.8276Y49.3242
G1X-17.8079Y49.3878
G1X-17.7882Y49.4513
G1X-17.7641Y49.5122
G1X-17.74Y49.5738
G1X-17.7108Y49.6322
G1X-17.6816Y49.6907
G1X-17.6473Y49.7459
G1X-17.6136Y49.8012
G1X-17.5749Y49.8526
G1X-17.5355Y49.9047
G1X-17.4917Y49.9516
G1X-17.4479Y49.9986
G1X-17.399Y50.0412
G1X-17.3501Y50.0837
G1X-17.2961Y50.1212
G1X-17.2421Y50.158
G1X-17.1806Y50.1326
G1X-17.119Y50.1072
G1X-17.0675Y50.0755
G1X-17.0167Y50.0437
G1X-16.9748Y50.0056
G1X-16.9335Y49.9682
G1X-16.9005Y49.9256
G1X-16.8675Y49.8831
G1X-16.8421Y49.8361
G1X-16.8167Y49.7891
G1X-16.7983Y49.7377
G1X-16.7792Y49.6869
G1X-16.7665Y49.6329
G1X-16.7532Y49.5789
G1X-16.7443Y49.5218
G1X-16.7354Y49.4652
G1X-16.7278Y49.3465
G1X-16.7202Y49.2277
G1X-16.7183Y49.1065
G1X-16.7164Y48.9851
G1X-16.7119Y48.8658
G1X-16.7081Y48.7464
G1X-16.6935Y48.6347
G1X-16.6789Y48.5223
G1X-16.6497Y48.3622
G1X-16.6199Y48.2022
G1X-16.5944Y48.0371
G1X-16.5697Y47.8714
G1X-16.5189Y47.5323
G1X-16.4674Y47.1932
G1X-16.4357Y47.0243
G1X-16.4033Y46.8554
G1X-16.3627Y46.6897
G1X-16.3214Y46.5239
G1X-16.2687Y46.3639
G1X-16.2154Y46.2039
G1X-16.183Y46.1264
G1X-16.1512Y46.0489
G1X-16.115Y45.974
G1X-16.0782Y45.8991
G1X-16.0052Y45.8153
G1X-15.9315Y45.7308
G1X-15.849Y45.6539
G1X-15.7658Y45.5765
G1X-15.675Y45.506
G1X-15.5842Y45.4355
G1X-15.4876Y45.3714
G1X-15.3905Y45.3079
G1X-15.2889Y45.2507
G1X-15.1873Y45.1936
G1X-15.0831Y45.1428
G1X-14.979Y45.092
G1X-14.8736Y45.0482
G1X-14.7688Y45.0037
G1X-14.6641Y44.9663
G1X-14.5593Y44.9288
G1X-14.4774Y44.9097
G1X-14.3961Y44.8913
G1X-14.311Y44.8837
G1X-14.2266Y44.8767
G1X-14.0513Y44.8792
G1X-13.8754Y44.8818
G1X-13.7865Y44.8818
G1X-13.6982Y44.8825
G1X-13.61Y44.8755
G1X-13.5217Y44.8691
G1X-13.4347Y44.8507
G1X-13.3477Y44.8323
G1X-13.3052Y44.8176
G1X-13.2633Y44.8024
G1X-13.2213Y44.7827
G1X-13.1794Y44.7631
G1X-13.1337Y44.7319
G1X-13.088Y44.7002
G1X-13.0518Y44.6614
G1X-13.0156Y44.6221
G1X-12.9902Y44.5776
G1X-12.9642Y44.5332
G1X-12.9508Y44.4855
G1X-12.9375Y44.4386
G1X-12.9375Y44.3916
G1X-12.9375Y44.3446
G1X-12.9515Y44.3001
G1X-12.9661Y44.2557
G1X-12.9965Y44.2163
G1X-13.027Y44.1769
G1X-13.0746Y44.1452
G1X-13.1223Y44.1134
G1X-13.1616Y44.0919
G1X-13.201Y44.0703
G1X-13.2359Y44.0455
G1X-13.2715Y44.0201
G1X-13.3356Y43.968
G1X-13.4004Y43.9153
G1X-13.4639Y43.8709
G1X-13.5274Y43.8258
G1X-13.5623Y43.8106
G1X-13.5966Y43.7953
G1X-13.6354Y43.7871
G1X-13.6735Y43.7794
G1X-13.7985Y43.7629
G1X-13.9243Y43.7471
G1X-14.0487Y43.7248
G1X-14.1739Y43.7026
G1X-14.2977Y43.6747
G1X-14.4221Y43.6474
G1X-14.5453Y43.615
G1X-14.6685Y43.5826
G1X-14.9104Y43.5077
G1X-15.1524Y43.4328
G1X-15.3873Y43.3489
G1X-15.6216Y43.2651
G1X-16.0972Y43.0771
G1X-16.5729Y42.8892
G1X-17.0497Y42.6841
G1X-17.526Y42.479
G1X-18.0023Y42.2618
G1X-18.4779Y42.0452
G1X-18.9509Y41.8211
G1X-19.424Y41.5976
G1X-20.125Y41.2547
G1X-20.8261Y40.9118
G1X-21.1734Y40.7327
G1X-21.5208Y40.5543
G1X-21.8643Y40.3689
G1X-22.2078Y40.1834
G1X-22.5469Y39.9891
G1X-22.886Y39.7954
G1X-23.2194Y39.5916
G1X-23.5522Y39.3878
G1X-23.8792Y39.1719
G1X-24.2056Y38.9566
G1X-24.5243Y38.728
G1X-24.8431Y38.4994
F150
G1Z-1.905
F400
G40
G41
G1X-24.5243Y38.728
G1X-24.2056Y38.9566
G1X-23.8792Y39.1719
G1X-23.5522Y39.3878
G1X-23.2194Y39.5916
G1X-22.886Y39.7954
G1X-22.5469Y39.9891
G1X-22.2078Y40.1834
G1X-21.8643Y40.3689
G1X-21.5208Y40.5543
G1X-21.1734Y40.7327
G1X-20.8261Y40.9118
G1X-20.125Y41.2547
G1X-19.424Y41.5976
G1X-18.9509Y41.8211
G1X-18.4779Y42.0452
G1X-18.0023Y42.2618
G1X-17.526Y42.479
G1X-17.0497Y42.6841
G1X-16.5729Y42.8892
G1X-16.0972Y43.0771
G1X-15.6216Y43.2651
G1X-15.3873Y43.3489
G1X-15.1524Y43.4328
G1X-14.9104Y43.5077
G1X-14.6685Y43.5826
G1X-14.5453Y43.615
G1X-14.4221Y43.6474
G1X-14.2977Y43.6747
G1X-14.1739Y43.7026
G1X-14.0487Y43.7248
G1X-13.9243Y43.7471
G1X-13.7985Y43.7629
G1X-13.6735Y43.7794
G1X-13.6354Y43.7871
G1X-13.5966Y43.7953
G1X-13.5623Y43.8106
G1X-13.5274Y43.8258
G1X-13.4639Y43.8709
G1X-13.4004Y43.9153
G1X-13.3356Y43.968
G1X-13.2715Y44.0201
G1X-13.2359Y44.0455
G1X-13.201Y44.0703
G1X-13.1616Y44.0919
G1X-13.1223Y44.1134
G1X-13.0746Y44.1452
G1X-13.027Y44.1769
G1X-12.9965Y44.2163
G1X-12.9661Y44.2557
G1X-12.9515Y44.3001
G1X-12.9375Y44.3446
G1X-12.9375Y44.3916
G1X-12.9375Y44.4386
G1X-12.9508Y44.4855
G1X-12.9642Y44.5332
G1X-12.9902Y44.5776
G1X-13.0156Y44.6221
G1X-13.0518Y44.6614
G1X-13.088Y44.7002
G1X-13.1337Y44.7319
G1X-13.1794Y44.7631
G1X-13.2213Y44.7827
G1X-13.2633Y44.8024
G1X-13.3052Y44.8176
G1X-13.3477Y44.8323
G1X-13.4347Y44.8507
G1X-13.5217Y44.8691
G1X-13.61Y44.8755
G1X-13.6982Y44.8825
G1X-13.7865Y44.8818
G1X-13.8754Y44.8818
G1X-14.0513Y44.8792
G1X-14.2266Y44.8767
G1X-14.311Y44.8837
G1X-14.3961Y44.8913
G1X-14.4774Y44.9097
G1X-14.5593Y44.9288
G1X-14.6641Y44.9663
G1X-14.7688Y45.0037
G1X-14.8736Y45.0482
G1X-14.979Y45.092
G1X-15.0831Y45.1428
G1X-15.1873Y45.1936
G1X-15.2889Y45.2507
G1X-15.3905Y45.3079
G1X-15.4876Y45.3714
G1X-15.5842Y45.4355
G1X-15.675Y45.506
G1X-15.7658Y45.5765
G1X-15.849Y45.6539
G1X-15.9315Y45.7308
G1X-16.0052Y45.8153
G1X-16.0782Y45.8991
G1X-16.115Y45.974
G1X-16.1512Y46.0489
G1X-16.183Y46.1264
G1X-16.2154Y46.2039
G1X-16.2687Y46.3639
G1X-16.3214Y46.5239
G1X-16.3627Y46.6897
G1X-16.4033Y46.8554
G1X-16.4357Y47.0243
G1X-16.4674Y47.1932
G1X-16.5189Y47.5323
G1X-16.5697Y47.8714
G1X-16.5944Y48.0371
G1X-16.6199Y48.2022
G1X-16.6497Y48.3622
G1X-16.6789Y48.5223
G1X-16.6935Y48.6347
G1X-16.7081Y48.7464
G1X-16.7119Y48.8658
G1X-16.7164Y48.9851
G1X-16.7183Y49.1065
G1X-16.7202Y49.2277
G1X-16.7278Y49.3465
G1X-16.7354Y49.4652
G1X-16.7443Y49.5218
G1X-16.7532Y49.5789
G1X-16.7665Y49.6329
G1X-16.7792Y49.6869
G1X-16.7983Y49.7377
G1X-16.8167Y49.7891
G1X-16.8421Y49.8361
G1X-16.8675Y49.8831
G1X-16.9005Y49.9256
G1X-16.9335Y49.9682
G1X-16.9748Y50.0056
G1X-17.0167Y50.0437
G1X-17.0675Y50.0755
G1X-17.119Y50.1072
G1X-17.1806Y50.1326
G1X-17.2421Y50.158
G1X-17.2961Y50.1212
G1X-17.3501Y50.0837
G1X-17.399Y50.0412
G1X-17.4479Y49.9986
G1X-17.4917Y49.9516
G1X-17.5355Y49.9047
G1X-17.5749Y49.8526
G1X-17.6136Y49.8012
G1X-17.6473Y49.7459
G1X-17.6816Y49.6907
G1X-17.7108Y49.6322
G1X-17.74Y49.5738
G1X-17.7641Y49.5122
G1X-17.7882Y49.4513
G1X-17.8079Y49.3878
G1X-17.8276Y49.3242
G1X-17.8422Y49.2589
G1X-17.8575Y49.1935
G1X-17.8676Y49.1268
G1X-17.8778Y49.0601
G1X-17.8841Y48.9255
G1X-17.8911Y48.7909
G1X-17.8797Y48.6569
G1X-17.8683Y48.5235
G1X-17.8397Y48.3946
G1X-17.8105Y48.2663
G1X-17.787Y48.1686
G1X-17.7628Y48.0708
G1X-17.7502Y47.9723
G1X-17.7368Y47.8739
G1X-17.7343Y47.7755
G1X-17.7317Y47.6771
G1X-17.7394Y47.5787
G1X-17.7463Y47.4809
G1X-17.7635Y47.3843
G1X-17.78Y47.2878
G1X-17.8054Y47.1932
G1X-17.8314Y47.0986
G1X-17.8657Y47.0059
G1X-17.9Y46.9138
G1X-17.9426Y46.8242
G1X-17.9851Y46.7354
G1X-18.0353Y46.6497
G1X-18.0854Y46.5639
G1X-18.1426Y46.4827
G1X-18.2004Y46.4013
G1X-18.2645Y46.3245
G1X-18.3286Y46.2477
G1X-18.3991Y46.1766
G1X-18.4696Y46.1054
G1X-18.5458Y46.0407
G1X-18.622Y45.9753
G1X-18.7039Y45.9169
G1X-18.7858Y45.8584
G1X-18.8728Y45.807
G1X-18.9592Y45.7562
G1X-19.0506Y45.7124
G1X-19.1421Y45.6692
G1X-19.2754Y45.6114
G1X-19.4081Y45.553
G1X-19.4736Y45.5276
G1X-19.5389Y45.5022
G1X-19.6037Y45.4819
G1X-19.6691Y45.4622
G1X-19.7352Y45.4501
G1X-19.8012Y45.438
G1X-19.8685Y45.4374
G1X-19.9358Y45.4361
G1X-20.0057Y45.4482
G1X-20.0755Y45.4603
G1X-20.1486Y45.4882
G1X-20.2209Y45.5162
G1X-20.3124Y45.567
G1X-20.4038Y45.6171
G1X-20.4857Y45.6749
G1X-20.5683Y45.7327
G1X-20.6407Y45.7968
G1X-20.7137Y45.861
G1X-20.7766Y45.9321
G1X-20.8401Y46.0026
G1X-20.8934Y46.0794
G1X-20.9468Y46.1563
G1X-20.9905Y46.2394
G1X-21.0344Y46.322
G1X-21.0687Y46.4103
G1X-21.1023Y46.4991
G1X-21.1264Y46.5931
G1X-21.15Y46.6871
G1X-21.1791Y46.8141
G1X-21.2084Y46.9411
G1X-21.2433Y47.0681
G1X-21.2782Y47.1951
G1X-21.3531Y47.4485
G1X-21.4274Y47.7012
G1X-21.4598Y47.8269
G1X-21.4928Y47.9527
G1X-21.5176Y48.0778
G1X-21.543Y48.2029
G1X-21.557Y48.3273
G1X-21.5709Y48.4518
G1X-21.5709Y48.5756
G1X-21.5703Y48.6994
G1X-21.5621Y48.9394
G1X-21.5532Y49.1801
G1X-21.5532Y49.4297
G1X-21.5538Y49.6786
G1X-21.5532Y49.9313
G1X-21.5525Y50.1841
G1X-21.5411Y50.4355
G1X-21.5297Y50.687
G1X-21.5163Y50.8108
G1X-21.5036Y50.9346
G1X-21.4846Y51.0559
G1X-21.4649Y51.1778
G1X-21.4382Y51.2966
G1X-21.4109Y51.4153
G1X-21.3754Y51.5309
G1X-21.3398Y51.6458
G1X-21.2934Y51.7576
G1X-21.2477Y51.8687
G1X-21.1906Y51.9754
G1X-21.1328Y52.0821
G1X-21.063Y52.1837
G1X-20.9931Y52.2853
G1X-20.9093Y52.3805
G1X-20.8261Y52.4764
G1X-20.7137Y52.5983
G1X-20.6013Y52.7202
G1X-20.5518Y52.7812
G1X-20.5023Y52.8428
G1X-20.4584Y52.9044
G1X-20.4146Y52.966
G1X-20.3765Y53.0282
G1X-20.3391Y53.0905
G1X-20.3079Y53.1533
G1X-20.2775Y53.2162
G1X-20.254Y53.2797
G1X-20.2305Y53.3432
G1X-20.2159Y53.4073
G1X-20.2006Y53.4721
G1X-20.1949Y53.5375
G1X-20.1892Y53.6035
G1X-20.193Y53.6702
G1X-20.1968Y53.7369
G1X-20.2114Y53.8048
G1X-20.226Y53.8727
G1X-20.2514Y53.9426
G1X-20.2768Y54.0118
G1X-20.3143Y54.083
G1X-20.3517Y54.1541
G1X-20.4019Y54.2271
G1X-20.4521Y54.3001
G1X-20.5156Y54.3744
G1X-20.5791Y54.4493
G1X-20.6565Y54.5262
G1X-20.734Y54.603
G1X-20.7962Y54.6481
G1X-20.8585Y54.6938
G1X-20.9112Y54.7472
G1X-20.9645Y54.8005
G1X-21.0096Y54.8602
G1X-21.0547Y54.9199
G1X-21.0928Y54.9853
G1X-21.1309Y55.0501
G1X-21.1626Y55.1193
G1X-21.1944Y55.1885
G1X-21.2211Y55.2603
G1X-21.2471Y55.332
G1X-21.2884Y55.4774
G1X-21.329Y55.6235
G1X-21.3576Y55.7352
G1X-21.3862Y55.8464
G1X-21.4224Y55.9568
G1X-21.4579Y56.068
G1X-21.5056Y56.1734
G1X-21.5525Y56.2788
G1X-21.5818Y56.3283
G1X-21.611Y56.3785
G1X-21.6446Y56.4254
G1X-21.6789Y56.4725
G1X-21.731Y56.4737
G1X-21.783Y56.475
G1X-21.8326Y56.4585
G1X-21.8821Y56.442
G1X-21.9247Y56.4109
G1X-21.9666Y56.3791
G1X-21.997Y56.3353
G1X-22.0275Y56.2909
G1X-22.0644Y56.2362
G1X-22.1018Y56.1816
G1X-22.1501Y56.1397
G1X-22.1983Y56.0984
G1X-22.2555Y56.0699
G1X-22.312Y56.0413
G1X-22.3742Y56.0254
G1X-22.4364Y56.0095
G1X-22.5012Y56.0064
G1X-22.5666Y56.0038
G1X-22.6308Y56.0134
G1X-22.6956Y56.0229
G1X-22.7565Y56.0445
G1X-22.8181Y56.0667
G1X-22.8733Y56.101
G1X-22.9286Y56.1353
G1X-22.9571Y56.1619
G1X-22.9863Y56.1892
G1X-23.0099Y56.2204
G1X-23.0333Y56.2521
G1X-23.0524Y56.2864
G1X-23.0708Y56.3207
G1X-23.0854Y56.3575
G1X-23.1Y56.3943
G1X-23.1178Y56.4731
G1X-23.1362Y56.5518
G1X-23.1432Y56.6318
G1X-23.1502Y56.7118
G1X-23.1502Y56.783
G1X-23.1496Y56.8541
G1X-23.1451Y56.9252
G1X-23.1401Y56.9963
G1X-23.1159Y57.1379
G1X-23.0918Y57.2795
G1X-23.0511Y57.4174
G1X-23.0099Y57.5551
G1X-22.954Y57.6872
G1X-22.8981Y57.8186
G1X-22.8587Y57.9095
G1X-22.8194Y58.0003
G1X-22.7882Y58.0942
G1X-22.7571Y58.1882
G1X-22.7349Y58.2854
G1X-22.7127Y58.3819
G1X-22.7Y58.4803
G1X-22.6866Y58.5788
G1X-22.6828Y58.6778
G1X-22.6784Y58.7769
G1X-22.6841Y58.8759
G1X-22.6892Y58.975
G1X-22.7044Y59.0728
G1X-22.719Y59.1712
G1X-22.7438Y59.2671
G1X-22.7686Y59.363
G1X-22.78Y59.3877
G1X-22.7908Y59.4132
G1X-22.806Y59.4354
G1X-22.8219Y59.4576
G1X-22.8416Y59.4767
G1X-22.8613Y59.4957
G1X-22.8841Y59.5103
G1X-22.907Y59.5256
G1X-22.9324Y59.5357
G1X-22.9571Y59.5459
G1X-22.9838Y59.5509
G1X-23.0105Y59.556
G1X-23.0378Y59.5554
G1X-23.0651Y59.5547
G1X-23.0918Y59.5471
G1X-23.1191Y59.5401
G1X-23.1915Y59.5014
G1X-23.2639Y59.4627
G1X-23.3261Y59.41
G1X-23.3877Y59.3573
G1X-23.502Y59.2315
G1X-23.6157Y59.1058
G1X-23.7318Y58.9839
G1X-23.8481Y58.8613
G1X-23.9071Y58.7997
G1X-23.9662Y58.7375
G1X-24.0189Y58.6702
G1X-24.0716Y58.6029
G1X-24.1173Y58.5305
G1X-24.163Y58.4581
G1X-24.2017Y58.3819
G1X-24.2405Y58.3057
G1X-24.2729Y58.227
G1X-24.3046Y58.1476
G1X-24.33Y58.0657
G1X-24.3548Y57.9837
G1X-24.3732Y57.8999
G1X-24.391Y57.8167
G1X-24.4024Y57.7323
G1X-24.4132Y57.6479
G1X-24.4227Y57.5596
G1X-24.4329Y57.4713
G1X-24.4469Y57.3824
G1X-24.4608Y57.2941
G1X-24.4805Y57.2071
G1X-24.5002Y57.1195
G1X-24.5262Y57.0345
G1X-24.5516Y56.9487
G1X-24.5847Y56.8668
G1X-24.6177Y56.7842
G1X-24.6583Y56.7055
G1X-24.6996Y56.6274
G1X-24.7491Y56.5537
G1X-24.7987Y56.4801
G1X-24.8584Y56.4121
G1X-24.918Y56.3448
G1X-24.9473Y56.3563
G1X-24.9771Y56.3677
G1X-25.0069Y56.3734
G1X-25.0374Y56.3791
G1X-25.099Y56.3759
G1X-25.1612Y56.3727
G1X-25.2228Y56.3588
G1X-25.2844Y56.3442
G1X-25.3435Y56.327
G1X-25.4025Y56.3099
G1X-25.4648Y56.2909
G1X-25.527Y56.2712
G1X-25.5918Y56.254
G1X-25.6572Y56.2369
G1X-25.7226Y56.2305
G1X-25.788Y56.2242
G1X-25.8197Y56.2286
G1X-25.8521Y56.2324
G1X-25.8832Y56.2432
G1X-25.915Y56.2534
G1X-25.9512Y56.2673
G1X-25.988Y56.2813
G1X-26.0255Y56.2896
G1X-26.0629Y56.2985
G1X-26.1398Y56.3023
G1X-26.2166Y56.3061
G1X-26.2934Y56.2953
G1X-26.3696Y56.2845
G1X-26.4439Y56.2629
G1X-26.5182Y56.2413
G1X-26.597Y56.2083
G1X-26.6757Y56.1753
G1X-26.7494Y56.1321
G1X-26.8237Y56.0889
G1X-26.8872Y56.0331
G1X-26.9513Y55.9771
G1X-26.978Y55.9441
G1X-27.0047Y55.9111
G1X-27.0269Y55.8743
G1X-27.0491Y55.8374
G1X-27.0586Y55.8133
G1X-27.0681Y55.7886
G1X-27.0726Y55.7638
G1X-27.0777Y55.7384
G1X-27.0732Y55.6876
G1X-27.0694Y55.6368
G1X-27.0497Y55.5886
G1X-27.0301Y55.5409
G1X-26.997Y55.5015
G1X-26.964Y55.4615
G1X-26.4808Y55.0424
G1X-25.9975Y54.6227
G1X-25.7499Y54.4208
G1X-25.5022Y54.2182
G1X-25.2463Y54.0264
G1X-24.9904Y53.8347
G1X-24.9606Y53.7547
G1X-24.9307Y53.6753
G1X-24.8965Y53.5978
G1X-24.8622Y53.5197
G1X-24.7853Y53.3686
G1X-24.7085Y53.2168
G1X-24.6304Y53.0644
G1X-24.5529Y52.9127
G1X-24.4849Y52.7565
G1X-24.4164Y52.5996
G1X-24.3707Y52.4935
G1X-24.3249Y52.3875
G1X-24.2703Y52.2859
G1X-24.2157Y52.1837
G1X-24.1548Y52.0852
G1X-24.0938Y51.9862
G1X-24.0303Y51.8903
G1X-23.9668Y51.7944
G1X-23.8811Y51.6598
G1X-23.796Y51.5245
G1X-23.7211Y51.3829
G1X-23.6468Y51.2413
G1X-23.6163Y51.1677
G1X-23.5852Y51.094
G1X-23.5598Y51.0184
G1X-23.5344Y50.9429
G1X-23.5159Y50.8661
G1X-23.4969Y50.7886
G1X-23.4855Y50.7092
G1X-23.4734Y50.6305
G1X-23.4575Y50.5123
G1X-23.441Y50.3942
G1X-23.4169Y50.278
G1X-23.3928Y50.1618
G1X-23.3318Y49.9319
G1X-23.2715Y49.7021
G1X-23.2162Y49.5033
G1X-23.1604Y49.3039
G1X-23.1083Y49.1039
G1X-23.0556Y48.9045
G1X-23.0137Y48.7026
G1X-22.9718Y48.5
G1X-22.9565Y48.3984
G1X-22.9413Y48.2962
G1X-22.9317Y48.1933
G1X-22.9222Y48.0898
G2X-25.7772Y38.8944I-11.1512J-1.5792
G1X-25.8223Y38.8125
G1X-25.8674Y38.7312
G1X-25.9175Y38.6379
G1X-25.9677Y38.5445
G1X-25.9861Y38.4956
G1X-26.0045Y38.4473
G1X-26.0147Y38.3991
G1X-26.0242Y38.3508
G1X-26.0223Y38.3032
G1X-26.0204Y38.2556
G1X-26.0026Y38.2105
G1X-25.9855Y38.1654
G1X-25.9645Y38.1387
G1X-25.9436Y38.1127
G1X-25.9175Y38.093
G1X-25.8915Y38.0727
G1X-25.8617Y38.0587
G1X-25.8318Y38.0448
G1X-25.7988Y38.0365
G1X-25.7658Y38.0283
G1X-25.7315Y38.0251
G1X-25.6978Y38.0219
G1X-25.6629Y38.0238
G1X-25.6286Y38.0257
G1X-25.5651Y38.0429
G1X-25.501Y38.0606
G1X-25.4197Y38.1013
G1X-25.3378Y38.1419
G1X-25.2571Y38.1908
G1X-25.1765Y38.2403
G1X-25.099Y38.2949
G1X-25.0215Y38.3489
G1X-24.9498Y38.4054
G1X-24.878Y38.4619
F150
G1Z1.905
G0Z9.525
G40
M9M5

(* SHAPE NR: 87 *)
G0X26.2623Y38.5864
M3M8
G42
F400
G1X26.7145Y38.1222
G2X25.6553Y37.9247I-.6287J.4305
G0Z1.905
F150
G1Z-.9525
F400
G3X12.7254Y44.3179I-28.8881J-42.1532
G2X13.4258Y44.7307I.5143J-.0718
G3X16.5322Y47.317I-.0248J3.1883
G3X17.0352Y49.6875I-12.5533J3.9014
G2X17.8791Y49.723I.4248J-.0426
G3X17.7533Y47.3888I5.1937J-1.4504
G3X19.4056Y45.6463I2.5387J.7538
G3X20.0343Y45.4133I1.0668J1.9088
G3X21.4528Y51.3931I-3.6627J4.0272
G3X20.2495Y52.8479I-2.7108J-1.0173
G2X20.2857Y54.3027I.8655J.7061
G3X21.8662Y56.2242I-2.8238J3.9332
G2X23.1229Y55.6495I.0286J-1.5996
G3X22.6384Y58.8994I-4.1072J1.0484
G2X23.4283Y59.2233I.4337J.068
G3X24.8291Y56.4216I6.4472J1.4726
G3X26.9481Y56.242I1.2554J2.2225
G2X27.1996Y55.4876I.047J-.4032
G3X25.835Y54.5541I2.2879J-4.8076
G3X22.9254Y44.3179I8.0239J-7.8118
G3X25.7988Y38.9661I7.8657J.776
G2X25.6553Y37.9247I-.2337J-.4985
F150
G1Z-1.905
F400
G3X12.7254Y44.3179I-28.8881J-42.1532
G2X13.4258Y44.7307I.5143J-.0718
G3X16.5322Y47.317I-.0248J3.1883
G3X17.0352Y49.6875I-12.5533J3.9014
G2X17.8791Y49.723I.4248J-.0426
G3X17.7533Y47.3888I5.1937J-1.4504
G3X19.4056Y45.6463I2.5387J.7538
G3X20.0343Y45.4133I1.0668J1.9088
G3X21.4528Y51.3931I-3.6627J4.0272
G3X20.2495Y52.8479I-2.7108J-1.0173
G2X20.2857Y54.3027I.8655J.7061
G3X21.8662Y56.2242I-2.8238J3.9332
G2X23.1229Y55.6495I.0286J-1.5996
G3X22.6384Y58.8994I-4.1072J1.0484
G2X23.4283Y59.2233I.4337J.068
G3X24.8291Y56.4216I6.4472J1.4726
G3X26.9481Y56.242I1.2554J2.2225
G2X27.1996Y55.4876I.047J-.4032
G3X25.835Y54.5541I2.2879J-4.8076
G3X22.9254Y44.3179I8.0239J-7.8118
G3X25.7988Y38.9661I7.8657J.776
G2X25.6553Y37.9247I-.2337J-.4985
F150
G1Z1.905
G0Z9.525
G40
M9M5

(* SHAPE NR: 86 *)
G0X34.7904Y34.4132
M3M8
G42
F400
G1X34.1871Y34.1782
G2X34.4189Y35.2311I.642J.4102
G0Z1.905
F150
G1Z-.9525
F400
G2X38.0822Y34.01I1.3373J-2.093
G2X34.4189Y35.2311I-.1041J5.7931
F150
G1Z-1.905
F400
G2X38.0822Y34.01I1.3373J-2.093
G2X34.4189Y35.2311I-.1041J5.7931
F150
G1Z1.905
G0Z9.525
G40
M9M5

(* SHAPE NR: 85 *)
G0X44.4303Y14.203
M3M8
G42
F400
G1X44.4862Y13.5579
G2X43.5413Y14.076I-.2134J.7315
G0Z1.905
F150
G1Z-.9525
F400
G3X31.6173Y33.2556I-40.2539J-11.7303
G2X32.5152Y33.6867I.4801J.1505
G3X52.9514Y32.7165I11.0579J17.2104
G2X53.5261Y31.783I.2724J-.4762
G3X44.3497Y14.2735I6.7589J-14.7022
G2X43.5413Y14.076I-.4223J-.0248
F150
G1Z-1.905
F400
G3X31.6173Y33.2556I-40.2539J-11.7303
G2X32.5152Y33.6867I.4801J.1505
G3X52.9514Y32.7165I11.0579J17.2104
G2X53.5261Y31.783I.2724J-.4762
G3X44.3497Y14.2735I6.7589J-14.7022
G2X43.5413Y14.076I-.4223J-.0248
F150
G1Z1.905
G0Z9.525
G40
M9M5

(* SHAPE NR: 84 *)
G0X46.5207Y4.7568
M3M8
G42
F400
G1X46.4471Y4.1135
G2X45.6247Y4.8095I-.0635J.7595
G0Z1.905
F150
G1Z-.9525
F400
G2X46.5582Y5.0076I.4794J.04
G3X53.3464Y-5.1213I23.8144J8.622
G2X52.8434Y-5.8217I-.2635J-.3416
G3X45.8223Y-8.4614I-2.1863J-4.8432
G2X45.1936Y-8.1922I-.2896J.1918
G3X45.6247Y4.8095I-36.6617J7.7235
F150
G1Z-1.905
F400
G2X46.5582Y5.0076I.4794J.04
G3X53.3464Y-5.1213I23.8144J8.622
G2X52.8434Y-5.8217I-.2635J-.3416
G3X45.8223Y-8.4614I-2.1863J-4.8432
G2X45.1936Y-8.1922I-.2896J.1918
G3X45.6247Y4.8095I-36.6617J7.7235
F150
G1Z1.905
G0Z9.525
G40
M9M5

(* SHAPE NR: 83 *)
G0X45.0399Y-11.9075
M3M8
G42
F400
G1X44.5141Y-12.286
G2X44.4754Y-11.209I.5188J.5582
G0Z1.905
F150
G1Z-.9525
F400
G2X45.6425Y-11.8193I.5004J-.4648
G3X48.1209Y-14.9619I3.1769J-.0432
G3X51.9455Y-13.6868I.9931J3.3953
G3X50.473Y-9.8438I-1.7526J1.5323
G3X47.8333Y-11.5678I-.1098J-2.7146
G2X46.9532Y-10.7416I-.2972J.5652
G2X52.1614Y-8.5509I3.9827J-2.1812
G2X57.8358Y-14.5853I-3.1528J-8.6506
G2X55.0164Y-24.3186I-6.6649J-3.3445
G2X53.239Y-24.2284I-.8636J.5525
G3X52.197Y-23.5642I-.7639J-.0489
G3X50.7244Y-24.7136I1.6389J-3.6182
G3X50.6527Y-27.766I2.9502J-1.5964
G3X47.2408Y-27.9819I-1.6122J-1.59
G2X45.3371Y-29.6697I-5.6026J4.4005
G3X48.6772Y-31.1423I3.3204J3.0067
G2X49.0004Y-32.4352I-.2387J-.7468
G3X48.5337Y-34.3389I.6686J-1.1729
G3X52.305Y-33.1178I.7899J3.9935
G3X57.0821Y-28.5921I-119.5832J131.0106
G2X48.2104Y-38.1101I-19.2938J9.09
G2X40.4883Y-37.0688I-3.201J5.4115
G2X41.1709Y-34.4468I2.093J.8547
G3X35.981Y-37.3018I-1.1659J-4.0246
G3X32.0662Y-35.9194I-3.429J-3.4747
G3X29.0309Y-36.5658I.3143J-8.9236
G2X29.0309Y-35.9911I.3702J.287
G3X44.4754Y-11.209I-26.783J33.8944
F150
G1Z-1.905
F400
G2X45.6425Y-11.8193I.5004J-.4648
G3X48.1209Y-14.9619I3.1769J-.0432
G3X51.9455Y-13.6868I.9931J3.3953
G3X50.473Y-9.8438I-1.7526J1.5323
G3X47.8333Y-11.5678I-.1098J-2.7146
G2X46.9532Y-10.7416I-.2972J.5652
G2X52.1614Y-8.5509I3.9827J-2.1812
G2X57.8358Y-14.5853I-3.1528J-8.6506
G2X55.0164Y-24.3186I-6.6649J-3.3445
G2X53.239Y-24.2284I-.8636J.5525
G3X52.197Y-23.5642I-.7639J-.0489
G3X50.7244Y-24.7136I1.6389J-3.6182
G3X50.6527Y-27.766I2.9502J-1.5964
G3X47.2408Y-27.9819I-1.6122J-1.59
G2X45.3371Y-29.6697I-5.6026J4.4005
G3X48.6772Y-31.1423I3.3204J3.0067
G2X49.0004Y-32.4352I-.2387J-.7468
G3X48.5337Y-34.3389I.6686J-1.1729
G3X52.305Y-33.1178I.7899J3.9935
G3X57.0821Y-28.5921I-119.5832J131.0106
G2X48.2104Y-38.1101I-19.2938J9.09
G2X40.4883Y-37.0688I-3.201J5.4115
G2X41.1709Y-34.4468I2.093J.8547
G3X35.981Y-37.3018I-1.1659J-4.0246
G3X32.0662Y-35.9194I-3.429J-3.4747
G3X29.0309Y-36.5658I.3143J-8.9236
G2X29.0309Y-35.9911I.3702J.287
G3X44.4754Y-11.209I-26.783J33.8944
F150
G1Z1.905
G0Z9.525
G40
M9M5

(* SHAPE NR: 82 *)
G0X27.5762Y-38.0314
M3M8
G42
F400
G1X27.0662Y-38.4302
G2X26.9837Y-37.3558I.4959J.5785
G0Z1.905
F150
G1Z-.9525
F400
G2X27.954Y-37.392I.4706J-.4039
G3X30.5035Y-40.4089I20.7137J14.9219
G3X36.3937Y-42.2408I4.2564J3.3014
G3X36.5017Y-43.4619I1.3843J-.4934
G2X34.8857Y-45.3295I-1.5831J-.2629
G2X31.8326Y-44.5389I-.6134J3.9224
G3X19.0106Y-43.1025I-8.1953J-15.2051
G2X18.7592Y-42.1329I-.1175J.487
G3X26.9837Y-37.3558I-9.8533J26.435
F150
G1Z-1.905
F400
G2X27.954Y-37.392I.4706J-.4039
G3X30.5035Y-40.4089I20.7137J14.9219
G3X36.3937Y-42.2408I4.2564J3.3014
G3X36.5017Y-43.4619I1.3843J-.4934
G2X34.8857Y-45.3295I-1.5831J-.2629
G2X31.8326Y-44.5389I-.6134J3.9224
G3X19.0106Y-43.1025I-8.1953J-15.2051
G2X18.7592Y-42.1329I-.1175J.487
G3X26.9837Y-37.3558I-9.8533J26.435
F150
G1Z1.905
G0Z9.525
G40
M9M5

(* SHAPE NR: 81 *)
G0X18.3578Y-45.2291
M3M8
G42
F400
G1X18.7693Y-44.7294
G2X19.0824Y-45.7607I-.3588J-.6718
G0Z1.905
F150
G1Z-.9525
F400
G2X15.2394Y-47.2332I-2.7711J1.4802
G2X19.0824Y-45.7607I2.8016J-1.5615
F150
G1Z-1.905
F400
G2X15.2394Y-47.2332I-2.7711J1.4802
G2X19.0824Y-45.7607I2.8016J-1.5615
F150
G1Z1.905
G0Z9.525
G40
M9M5

(* SHAPE NR: 80 *)
G0X-12.4149Y-45.0761
M3M8
G42
F400
G1X-12.9654Y-44.7357
G2X-11.985Y-44.2881I.7137J-.2661
G0Z1.905
F150
G1Z-.9525
F400
G3X12.0066Y-44.2881I11.9958J32.1793
G2X12.1145Y-45.6527I.0026J-.6864
G3X3.0639Y-55.7454I3.8944J-12.5971
G3X4.7879Y-64.5808I10.875J-2.4638
G2X4.5364Y-65.8736I-.5652J-.5613
G3X.6395Y-69.2137I.3492J-4.351
G3X.6572Y-71.9252I5.188J-1.3214
G2X.8731Y-74.1883I-8.8468J-1.9844
G2X-.9049Y-74.1883I-.889J.0216
G2X-.8509Y-72.0154I5.087J.9607
G3X-.7074Y-69.142I-3.9567J1.6383
G3X-4.0119Y-65.9625I-3.8297J-.6737
G1X-4.1345Y-65.9447
G1X-4.2577Y-65.9264
G1X-4.3739Y-65.9174
G1X-4.4907Y-65.9085
G1X-4.6063Y-65.8971
G1X-4.7225Y-65.8863
G1X-4.7828Y-65.8762
G1X-4.8432Y-65.866
G1X-4.9054Y-65.8508
G1X-4.9682Y-65.8355
G1X-5.0139Y-65.819
G1X-5.0591Y-65.8025
G1X-5.0984Y-65.7809
G1X-5.1378Y-65.7593
G1X-5.1708Y-65.7333
G1X-5.2045Y-65.7073
G1X-5.2318Y-65.6768
G1X-5.2597Y-65.6463
G1X-5.2826Y-65.6107
G1X-5.3054Y-65.5758
G1X-5.3245Y-65.5365
G1X-5.3429Y-65.4977
G1X-5.3689Y-65.4069
G1X-5.3949Y-65.3167
G1X-5.3988Y-65.2862
G1X-5.4026Y-65.2558
G1X-5.4007Y-65.2278
G1X-5.3994Y-65.1993
G1X-5.3829Y-65.1472
G1X-5.367Y-65.0958
G1X-5.3378Y-65.0481
G1X-5.3092Y-65.0011
G1X-5.273Y-64.9567
G1X-5.2368Y-64.9116
G1X-5.1988Y-64.8672
G1X-5.1606Y-64.8221
G1X-5.1263Y-64.7751
G1X-5.0914Y-64.7281
G1X-5.066Y-64.6767
G1X-5.04Y-64.6252
G1X-5.0324Y-64.5973
G1X-5.0248Y-64.5687
G1X-5.0209Y-64.5389
G1X-5.0171Y-64.5084
G3X-3.2213Y-54.883I-13.5312J7.5051
G3X-12.4162Y-45.4012I-14.5878J-4.9467
G2X-11.985Y-44.2881I.2692J.5359
F150
G1Z-1.905
F400
G3X12.0066Y-44.2881I11.9958J32.1793
G2X12.1145Y-45.6527I.0026J-.6864
G3X3.0639Y-55.7454I3.8944J-12.5971
G3X4.7879Y-64.5808I10.875J-2.4638
G2X4.5364Y-65.8736I-.5652J-.5613
G3X.6395Y-69.2137I.3492J-4.351
G3X.6572Y-71.9252I5.188J-1.3214
G2X.8731Y-74.1883I-8.8468J-1.9844
G2X-.9049Y-74.1883I-.889J.0216
G2X-.8509Y-72.0154I5.087J.9607
G3X-.7074Y-69.142I-3.9567J1.6383
G3X-4.0119Y-65.9625I-3.8297J-.6737
G1X-4.1345Y-65.9447
G1X-4.2577Y-65.9264
G1X-4.3739Y-65.9174
G1X-4.4907Y-65.9085
G1X-4.6063Y-65.8971
G1X-4.7225Y-65.8863
G1X-4.7828Y-65.8762
G1X-4.8432Y-65.866
G1X-4.9054Y-65.8508
G1X-4.9682Y-65.8355
G1X-5.0139Y-65.819
G1X-5.0591Y-65.8025
G1X-5.0984Y-65.7809
G1X-5.1378Y-65.7593
G1X-5.1708Y-65.7333
G1X-5.2045Y-65.7073
G1X-5.2318Y-65.6768
G1X-5.2597Y-65.6463
G1X-5.2826Y-65.6107
G1X-5.3054Y-65.5758
G1X-5.3245Y-65.5365
G1X-5.3429Y-65.4977
G1X-5.3689Y-65.4069
G1X-5.3949Y-65.3167
G1X-5.3988Y-65.2862
G1X-5.4026Y-65.2558
G1X-5.4007Y-65.2278
G1X-5.3994Y-65.1993
G1X-5.3829Y-65.1472
G1X-5.367Y-65.0958
G1X-5.3378Y-65.0481
G1X-5.3092Y-65.0011
G1X-5.273Y-64.9567
G1X-5.2368Y-64.9116
G1X-5.1988Y-64.8672
G1X-5.1606Y-64.8221
G1X-5.1263Y-64.7751
G1X-5.0914Y-64.7281
G1X-5.066Y-64.6767
G1X-5.04Y-64.6252
G1X-5.0324Y-64.5973
G1X-5.0248Y-64.5687
G1X-5.0209Y-64.5389
G1X-5.0171Y-64.5084
G3X-3.2213Y-54.883I-13.5312J7.5051
G3X-12.4162Y-45.4012I-14.5878J-4.9467
G2X-11.985Y-44.2881I.2692J.5359
F150
G1Z1.905
G0Z9.525
G40
M9M5

(* SHAPE NR: 79 *)
G0X-19.0284Y-46.4763
M3M8
G42
F400
G1X-19.6761Y-46.4896
G2X-19.0963Y-45.5809I.7442J.1645
G0Z1.905
F150
G1Z-.9525
F400
G2X-15.3613Y-47.0535I.7753J-3.5065
G2X-19.0963Y-45.5809I-1.2091J2.4073
F150
G1Z-1.905
F400
G2X-15.3613Y-47.0535I.7753J-3.5065
G2X-19.0963Y-45.5809I-1.2091J2.4073
F150
G1Z1.905
G0Z9.525
G40
M9M5

(* SHAPE NR: 78 *)
G0X-17.131Y-43.66
M3M8
G42
F400
G1X-17.6416Y-43.2619
G2X-16.6186Y-42.9228I.6807J-.3423
G0Z1.905
F150
G1Z-.9525
F400
G2X-16.7983Y-43.3902I-.113J-.2248
G3X-25.8127Y-42.9228I-5.4731J-18.4093
G3X-32.6733Y-44.8983I-.247J-12.0421
G2X-36.049Y-45.0418I-1.9717J6.5894
G2X-36.049Y-42.2408I.5271J1.4008
G3X-29.2252Y-39.2233I1.4364J5.9766
G3X-27.7882Y-36.8529I-7.9172J6.4186
G3X-16.6186Y-42.9228I19.3015J22.2072
F150
G1Z-1.905
F400
G2X-16.7983Y-43.3902I-.113J-.2248
G3X-25.8127Y-42.9228I-5.4731J-18.4093
G3X-32.6733Y-44.8983I-.247J-12.0421
G2X-36.049Y-45.0418I-1.9717J6.5894
G2X-36.049Y-42.2408I.5271J1.4008
G3X-29.2252Y-39.2233I1.4364J5.9766
G3X-27.7882Y-36.8529I-7.9172J6.4186
G3X-16.6186Y-42.9228I19.3015J22.2072
F150
G1Z1.905
G0Z9.525
G40
M9M5

(* SHAPE NR: 77 *)
G0X-45.313Y-12.1361
M3M8
G42
F400
G1X-45.3244Y-11.489
G2X-44.4176Y-12.0707I.1626J-.7442
G0Z1.905
F150
G1Z-.9525
F400
G3X-29.1173Y-35.955I39.8767J8.7021
G2X-32.8168Y-36.1347I-2.1768J6.6542
G3X-35.367Y-37.1043I-.703J-1.9901
G2X-36.2464Y-37.2485I-.5067J.3365
G3X-41.329Y-34.6265I-3.375J-.3054
G2X-40.7543Y-37.0688I-.6388J-1.4389
G2X-42.6218Y-38.5413I-2.6162J1.3976
G2X-48.2968Y-38.074I-2.2771J7.0402
G2X-57.1678Y-29.2208I10.0825J18.9744
G2X-56.6471Y-28.7896I.3048J.1619
G2X-55.9467Y-29.3827I-.2051J-.9531
G3X-48.3324Y-34.1592I7.2606J3.1166
G2X-49.5897Y-31.1423I2.2022J2.6879
G3X-45.5308Y-29.7415I.6699J4.6381
G3X-50.8464Y-27.4428I-4.0977J-2.1806
G3X-50.5949Y-24.8571I-3.0162J1.5983
G3X-52.8218Y-23.3483I-2.1939J-.8414
G2X-55.085Y-24.6774I-1.6338J.1911
G2X-58.5324Y-20.9779I1.8637J5.1937
G2X-57.886Y-14.7644I9.2513J2.1781
G2X-54.2944Y-9.6647I11.4706J-4.2628
G2X-49.5713Y-8.5871I3.4366J-4.1732
G2X-46.8598Y-11.0115I-2.0765J-5.0514
G2X-47.6142Y-11.6935I-.454J-.2559
G2X-49.3382Y-10.1676I2.8156J4.9162
G3X-51.9957Y-13.5433I-1.1811J-1.804
G3X-50.6311Y-14.5853I2.5051J1.8675
G3X-47.3265Y-14.4774I1.592J1.8916
G3X-45.3155Y-11.8193I-1.6364J3.3287
G2X-44.4176Y-12.0707I.4489J-.1257
F150
G1Z-1.905
F400
G3X-29.1173Y-35.955I39.8767J8.7021
G2X-32.8168Y-36.1347I-2.1768J6.6542
G3X-35.367Y-37.1043I-.703J-1.9901
G2X-36.2464Y-37.2485I-.5067J.3365
G3X-41.329Y-34.6265I-3.375J-.3054
G2X-40.7543Y-37.0688I-.6388J-1.4389
G2X-42.6218Y-38.5413I-2.6162J1.3976
G2X-48.2968Y-38.074I-2.2771J7.0402
G2X-57.1678Y-29.2208I10.0825J18.9744
G2X-56.6471Y-28.7896I.3048J.1619
G2X-55.9467Y-29.3827I-.2051J-.9531
G3X-48.3324Y-34.1592I7.2606J3.1166
G2X-49.5897Y-31.1423I2.2022J2.6879
G3X-45.5308Y-29.7415I.6699J4.6381
G3X-50.8464Y-27.4428I-4.0977J-2.1806
G3X-50.5949Y-24.8571I-3.0162J1.5983
G3X-52.8218Y-23.3483I-2.1939J-.8414
G2X-55.085Y-24.6774I-1.6338J.1911
G2X-58.5324Y-20.9779I1.8637J5.1937
G2X-57.886Y-14.7644I9.2513J2.1781
G2X-54.2944Y-9.6647I11.4706J-4.2628
G2X-49.5713Y-8.5871I3.4366J-4.1732
G2X-46.8598Y-11.0115I-2.0765J-5.0514
G2X-47.6142Y-11.6935I-.454J-.2559
G2X-49.3382Y-10.1676I2.8156J4.9162
G3X-51.9957Y-13.5433I-1.1811J-1.804
G3X-50.6311Y-14.5853I2.5051J1.8675
G3X-47.3265Y-14.4774I1.592J1.8916
G3X-45.3155Y-11.8193I-1.6364J3.3287
G2X-44.4176Y-12.0707I.4489J-.1257
F150
G1Z1.905
G0Z9.525
G40
M9M5

(* SHAPE NR: 76 *)
G0X-46.4261Y5.6972
M3M8
G42
F400
G1X-46.134Y6.2751
G2X-45.6031Y5.3372I-.2038J-.734
G0Z1.905
F150
G1Z-.9525
F400
G1X-45.6114Y5.3092
G1X-45.619Y5.2813
G1X-45.6336Y5.2502
G1X-45.6483Y5.219
G1X-45.6705Y5.1854
G1X-45.6927Y5.1511
G3X-45.2438Y-8.1204I24.7364J-5.8058
G2X-45.9441Y-8.5154I-.3594J-.181
G3X-47.3265Y-6.9348I-7.267J-4.9638
G3X-53.4327Y-5.8217I-4.0507J-4.9155
G2X-53.5045Y-5.1028I.0565J.3683
G3X-46.3569Y5.0971I-16.8643J19.4215
G1X-46.3296Y5.1524
G1X-46.3023Y5.2076
G1X-46.2794Y5.2642
G1X-46.2566Y5.3213
G1X-46.2274Y5.3727
G1X-46.1975Y5.4242
G1X-46.1766Y5.4464
G1X-46.1556Y5.468
G1X-46.1289Y5.4858
G1X-46.1023Y5.5042
G1X-46.0489Y5.5245
G1X-45.9956Y5.5448
G1X-45.9403Y5.5537
G1X-45.8851Y5.562
G1X-45.8324Y5.5581
G1X-45.7803Y5.555
G1X-45.7352Y5.5391
G1X-45.6908Y5.5232
G1X-45.6736Y5.5105
G1X-45.6558Y5.4985
G1X-45.6419Y5.4826
G1X-45.6279Y5.4674
G1X-45.6184Y5.4483
G1X-45.6089Y5.4299
G1X-45.6051Y5.4083
G1X-45.6006Y5.3867
G1X-45.6019Y5.3619
G1X-45.6031Y5.3372
F150
G1Z-1.905
F400
G1X-45.6114Y5.3092
G1X-45.619Y5.2813
G1X-45.6336Y5.2502
G1X-45.6483Y5.219
G1X-45.6705Y5.1854
G1X-45.6927Y5.1511
G3X-45.2438Y-8.1204I24.7364J-5.8058
G2X-45.9441Y-8.5154I-.3594J-.181
G3X-47.3265Y-6.9348I-7.267J-4.9638
G3X-53.4327Y-5.8217I-4.0507J-4.9155
G2X-53.5045Y-5.1028I.0565J.3683
G3X-46.3569Y5.0971I-16.8643J19.4215
G1X-46.3296Y5.1524
G1X-46.3023Y5.2076
G1X-46.2794Y5.2642
G1X-46.2566Y5.3213
G1X-46.2274Y5.3727
G1X-46.1975Y5.4242
G1X-46.1766Y5.4464
G1X-46.1556Y5.468
G1X-46.1289Y5.4858
G1X-46.1023Y5.5042
G1X-46.0489Y5.5245
G1X-45.9956Y5.5448
G1X-45.9403Y5.5537
G1X-45.8851Y5.562
G1X-45.8324Y5.5581
G1X-45.7803Y5.555
G1X-45.7352Y5.5391
G1X-45.6908Y5.5232
G1X-45.6736Y5.5105
G1X-45.6558Y5.4985
G1X-45.6419Y5.4826
G1X-45.6279Y5.4674
G1X-45.6184Y5.4483
G1X-45.6089Y5.4299
G1X-45.6051Y5.4083
G1X-45.6006Y5.3867
G1X-45.6019Y5.3619
G1X-45.6031Y5.3372
F150
G1Z1.905
G0Z9.525
G40
M9M5

(* SHAPE NR: 75 *)
G0X-34.9993Y36.148
M3M8
G42
F400
G1X-34.4958Y36.5557
G2X-34.3967Y35.4825I-.487J-.5861
G0Z1.905
F150
G1Z-.9525
F400
G2X-38.4194Y33.6867I-3.836J3.1896
G2X-34.3967Y35.4825I2.6613J-.5582
F150
G1Z-1.905
F400
G2X-38.4194Y33.6867I-3.836J3.1896
G2X-34.3967Y35.4825I2.6613J-.5582
F150
G1Z1.905
G0Z9.525
G40
M9M5

(* SHAPE NR: 74 *)
G0X10.1644Y45.3783
M3M8
G42
F400
G1X10.7036Y45.019
G2X9.7085Y44.6049I-.7042J.2908
G0Z1.905
F150
G1Z-.9525
F400
G3X5.1467Y45.6825I-5.6331J-13.6538
G3X-5.2686Y45.7003I-5.3061J-56.8915
G3X-9.5968Y44.8742I-.2102J-10.6477
G2X-10.809Y44.8742I-.6058J.9811
G2X-10.9074Y45.7905I.4128J.508
G3X-10.4407Y47.8377I-2.6835J1.6891
G3X-12.3444Y50.4952I-3.9713J-.8338
G1X-13.3318Y51.3391
G1X-14.3199Y52.1837
G2X-14.4996Y54.015I.9366J1.0166
G2X-13.6017Y53.1889I.1981J-.6858
G3X-11.3386Y51.4293I2.7705J1.2275
G3X-9.1116Y52.004I.5861J2.3305
G2X-9.9022Y53.4765I1.3487J1.6719
G3X-11.8415Y55.3078I-2.1J-.2813
G2X-13.3858Y57.1399I1.4237J2.7673
G2X-13.6017Y60.7314I5.381J2.1253
G2X-8.8608Y64.2874I4.4894J-1.0477
G2X-5.4483Y62.7786I.2686J-4.0056
G2X-5.0171Y60.5879I-2.0669J-1.5443
G3X-6.5259Y62.0605I-3.8265J-2.4111
G3X-8.7528Y62.0605I-1.1132J-2.0136
G3X-9.8305Y60.9111I.8528J-1.879
G3X-9.9022Y57.4992I5.6267J-1.825
G3X-7.4238Y54.8056I4.7911J1.9209
G3X-5.233Y54.7332I1.1804J2.5571
G3X-2.4136Y57.4268I-1.9336J4.8457
G3X-2.2162Y63.1018I-7.7438J3.1102
G3X-5.233Y66.9811I-5.2781J-.9925
G2X-5.7359Y68.3819I.729J1.0522
G3X-2.9344Y68.4536I1.3094J3.5979
G3X-.7792Y70.9314I-1.4148J3.4068
G3X-.8509Y74.3794I-5.6985J1.6059
G2X-.8871Y76.0679I5.3277J.9576
G2X.729Y76.0679I.8084J-.0019
G2X.6934Y73.5533I-5.8846J-1.1735
G3X.6934Y71.2908I4.292J-1.1316
G3X2.9559Y68.4174I3.1432J.1473
G3X6.1887Y68.4174I1.6161J4.9771
G2X5.6496Y67.2681I-1.1487J-.1626
G3X3.7459Y65.939I1.8974J-4.746
G3X1.5913Y61.6293I4.4907J-4.939
G3X3.7459Y55.739I6.8726J-.8249
G3X7.6613Y55.0209I2.5038J2.6194
G3X10.1753Y59.4385I-2.3031J4.2348
G3X7.8765Y62.3837I-3.1464J-.0864
G3X5.0749Y61.0546I-.3772J-2.8226
G2X7.1583Y64.1077I2.8518J.2915
G2X10.6242Y63.9997I1.6015J-4.2736
G2X13.6951Y61.0546I-1.677J-4.8222
G2X13.6049Y57.7507I-7.8778J-1.4396
G2X11.1271Y55.1821I-3.1991J.6077
G3X9.9238Y53.9432I.0457J-1.2484
G2X9.0976Y51.8782I-3.8214J.3308
G3X11.5576Y51.6446I1.3799J1.463
G3X13.4976Y53.0993I-.9512J3.2887
G2X14.2335Y52.3094I.3239J-.4363
G2X11.3068Y49.6513I-14.7656J13.3217
G3X10.3905Y47.658I1.2243J-1.7697
G3X10.8579Y45.3949I5.4476J-.0553
G2X10.8394Y44.6951I-.3257J-.3423
G2X9.7085Y44.6049I-.722J1.924
F150
G1Z-1.905
F400
G3X5.1467Y45.6825I-5.6331J-13.6538
G3X-5.2686Y45.7003I-5.3061J-56.8915
G3X-9.5968Y44.8742I-.2102J-10.6477
G2X-10.809Y44.8742I-.6058J.9811
G2X-10.9074Y45.7905I.4128J.508
G3X-10.4407Y47.8377I-2.6835J1.6891
G3X-12.3444Y50.4952I-3.9713J-.8338
G1X-13.3318Y51.3391
G1X-14.3199Y52.1837
G2X-14.4996Y54.015I.9366J1.0166
G2X-13.6017Y53.1889I.1981J-.6858
G3X-11.3386Y51.4293I2.7705J1.2275
G3X-9.1116Y52.004I.5861J2.3305
G2X-9.9022Y53.4765I1.3487J1.6719
G3X-11.8415Y55.3078I-2.1J-.2813
G2X-13.3858Y57.1399I1.4237J2.7673
G2X-13.6017Y60.7314I5.381J2.1253
G2X-8.8608Y64.2874I4.4894J-1.0477
G2X-5.4483Y62.7786I.2686J-4.0056
G2X-5.0171Y60.5879I-2.0669J-1.5443
G3X-6.5259Y62.0605I-3.8265J-2.4111
G3X-8.7528Y62.0605I-1.1132J-2.0136
G3X-9.8305Y60.9111I.8528J-1.879
G3X-9.9022Y57.4992I5.6267J-1.825
G3X-7.4238Y54.8056I4.7911J1.9209
G3X-5.233Y54.7332I1.1804J2.5571
G3X-2.4136Y57.4268I-1.9336J4.8457
G3X-2.2162Y63.1018I-7.7438J3.1102
G3X-5.233Y66.9811I-5.2781J-.9925
G2X-5.7359Y68.3819I.729J1.0522
G3X-2.9344Y68.4536I1.3094J3.5979
G3X-.7792Y70.9314I-1.4148J3.4068
G3X-.8509Y74.3794I-5.6985J1.6059
G2X-.8871Y76.0679I5.3277J.9576
G2X.729Y76.0679I.8084J-.0019
G2X.6934Y73.5533I-5.8846J-1.1735
G3X.6934Y71.2908I4.292J-1.1316
G3X2.9559Y68.4174I3.1432J.1473
G3X6.1887Y68.4174I1.6161J4.9771
G2X5.6496Y67.2681I-1.1487J-.1626
G3X3.7459Y65.939I1.8974J-4.746
G3X1.5913Y61.6293I4.4907J-4.939
G3X3.7459Y55.739I6.8726J-.8249
G3X7.6613Y55.0209I2.5038J2.6194
G3X10.1753Y59.4385I-2.3031J4.2348
G3X7.8765Y62.3837I-3.1464J-.0864
G3X5.0749Y61.0546I-.3772J-2.8226
G2X7.1583Y64.1077I2.8518J.2915
G2X10.6242Y63.9997I1.6015J-4.2736
G2X13.6951Y61.0546I-1.677J-4.8222
G2X13.6049Y57.7507I-7.8778J-1.4396
G2X11.1271Y55.1821I-3.1991J.6077
G3X9.9238Y53.9432I.0457J-1.2484
G2X9.0976Y51.8782I-3.8214J.3308
G3X11.5576Y51.6446I1.3799J1.463
G3X13.4976Y53.0993I-.9512J3.2887
G2X14.2335Y52.3094I.3239J-.4363
G2X11.3068Y49.6513I-14.7656J13.3217
G3X10.3905Y47.658I1.2243J-1.7697
G3X10.8579Y45.3949I5.4476J-.0553
G2X10.8394Y44.6951I-.3257J-.3423
G2X9.7085Y44.6049I-.722J1.924
F150
G1Z1.905
G0Z9.525
G40
M9M5

(* SHAPE NR: 73 *)
G0X17.7768Y-13.1927
M3M8
G42
F400
G1X17.2923Y-12.7635
G2X18.3344Y-12.4886I.6585J-.3835
G0Z1.905
F150
G1Z-.9525
F400
G1X22.9038Y-15.1511
G1X27.4733Y-17.8137
G1X27.2174Y-18.2486
G1X26.9615Y-18.6842
G1X22.4174Y-15.9448
G1X17.8734Y-13.2055
G1X18.1038Y-12.8473
G1X18.3344Y-12.4886
F150
G1Z-1.905
F400
G1X22.9038Y-15.1511
G1X27.4733Y-17.8137
G1X27.2174Y-18.2486
G1X26.9615Y-18.6842
G1X22.4174Y-15.9448
G1X17.8734Y-13.2055
G1X18.1038Y-12.8473
G1X18.3344Y-12.4886
F150
G1Z1.905
G0Z9.525
G40
M9M5

(* SHAPE NR: 72 *)
G0X19.6133Y-12.1965
M3M8
G42
F400
G1X19.1522Y-12.6511
G2X18.9484Y-11.5926I.4274J.6312
G0Z1.905
F150
G1Z-.9525
F400
G1X19.2176Y-11.1957
G1X19.4862Y-10.7994
G1X24.0944Y-13.2569
G1X28.702Y-15.7143
G1X28.4207Y-16.2522
G1X28.1394Y-16.7894
G1X23.5439Y-14.191
G1X18.9484Y-11.5926
F150
G1Z-1.905
F400
G1X19.2176Y-11.1957
G1X19.4862Y-10.7994
G1X24.0944Y-13.2569
G1X28.702Y-15.7143
G1X28.4207Y-16.2522
G1X28.1394Y-16.7894
G1X23.5439Y-14.191
G1X18.9484Y-11.5926
F150
G1Z1.905
G0Z9.525
G40
M9M5

(* SHAPE NR: 71 *)
G0X20.7086Y-10.2025
M3M8
G42
F400
G1X20.2628Y-10.6725
G2X20.0241Y-9.6215I.4058J.6445
G0Z1.905
F150
G1Z-.9525
F400
G1X20.2412Y-9.2761
G1X20.4591Y-8.9306
G1X25.0927Y-11.3112
G1X29.7262Y-13.6919
G1X29.5084Y-14.1656
G1X29.2913Y-14.6393
G1X24.6577Y-12.1304
G1X20.0241Y-9.6215
F150
G1Z-1.905
F400
G1X20.2412Y-9.2761
G1X20.4591Y-8.9306
G1X25.0927Y-11.3112
G1X29.7262Y-13.6919
G1X29.5084Y-14.1656
G1X29.2913Y-14.6393
G1X24.6577Y-12.1304
G1X20.0241Y-9.6215
F150
G1Z1.905
G0Z9.525
G40
M9M5

(* SHAPE NR: 70 *)
G0X12.0288Y-22.3456
M3M8
G42
F400
G1X11.651Y-21.8199
G2X12.728Y-21.7818I.5575J-.5194
G0Z1.905
F150
G1Z-.9525
F400
G1X15.5308Y-24.3929
G1X18.3344Y-27.004
G2X15.4927Y-28.7706I-6.1703J6.7571
G1X14.1103Y-25.2762
G1X12.728Y-21.7818
F150
G1Z-1.905
F400
G1X15.5308Y-24.3929
G1X18.3344Y-27.004
G2X15.4927Y-28.7706I-6.1703J6.7571
G1X14.1103Y-25.2762
G1X12.728Y-21.7818
F150
G1Z1.905
G0Z9.525
G40
M9M5

(* SHAPE NR: 69 *)
G0X12.138Y-19.6101
M3M8
G42
F400
G1X11.5303Y-19.8342
G2X11.7805Y-18.7865I.6496J.3988
G0Z1.905
F150
G1Z-.9525
F400
G3X17.0542Y-14.2297I-11.3227J18.4334
G1X21.4319Y-17.1736
G1X25.8096Y-20.1174
G2X19.6653Y-26.0566I-19.9091J14.4481
G1X15.7232Y-22.4212
G1X11.7805Y-18.7865
F150
G1Z-1.905
F400
G3X17.0542Y-14.2297I-11.3227J18.4334
G1X21.4319Y-17.1736
G1X25.8096Y-20.1174
G2X19.6653Y-26.0566I-19.9091J14.4481
G1X15.7232Y-22.4212
G1X11.7805Y-18.7865
F150
G1Z1.905
G0Z9.525
G40
M9M5

(* SHAPE NR: 68 *)
G0X.0825Y-35.8286
M3M8
G42
F400
G1X-.5525Y-35.7016
G2X.2095Y-34.9396I.762J0
G0Z1.905
F150
G1Z-.9525
F400
G1X1.3037Y-34.9396
G1X2.3984Y-34.9396
G1X1.3361Y-36.3417
G1X.2737Y-37.7431
G1X.2413Y-36.3417
G1X.2095Y-34.9396
F150
G1Z-1.905
F400
G1X1.3037Y-34.9396
G1X2.3984Y-34.9396
G1X1.3361Y-36.3417
G1X.2737Y-37.7431
G1X.2413Y-36.3417
G1X.2095Y-34.9396
F150
G1Z1.905
G0Z9.525
G40
M9M5

(* SHAPE NR: 67 *)
G0X-1.5094Y-34.8132
M3M8
G42
F400
G1X-1.3742Y-34.1801
G2X-.6223Y-34.9529I-.0108J-.762
G0Z1.905
F150
G1Z-.9525
F400
G1X-.642Y-36.3417
G1X-.6611Y-37.7304
G1X-1.717Y-36.3417
G1X-2.7731Y-34.9529
G1X-1.698Y-34.9529
G1X-.6223Y-34.9529
F150
G1Z-1.905
F400
G1X-.642Y-36.3417
G1X-.6611Y-37.7304
G1X-1.717Y-36.3417
G1X-2.7731Y-34.9529
G1X-1.698Y-34.9529
G1X-.6223Y-34.9529
F150
G1Z1.905
G0Z9.525
G40
M9M5

(* SHAPE NR: 66 *)
G0X-19.8577Y-29.8634
M3M8
G42
F400
G1X-20.3067Y-29.3973
G2X-19.2462Y-29.2055I.6261J-.4343
G0Z1.905
F150
G1Z-.9525
F400
G3X-10.4401Y-33.4296I17.5469J25.2908
G2X-19.7072Y-35.3498I-17.1799J59.5966
G2X-22.8048Y-35.3498I-1.5488J23.2702
G2X-26.4401Y-33.5832I.5353J5.7252
G2X-26.5678Y-28.8474I2.8797J2.4473
G2X-23.5471Y-27.3882I2.8201J-1.9812
G2X-20.8852Y-29.7434I.0673J-2.6067
G2X-22.7025Y-32.0218I-2.2739J-.0502
G2X-23.803Y-30.4343I-.1949J1.0401
G2X-23.2785Y-30.2425I.4464J-.4064
G3X-22.7025Y-29.4488I-.2946J.8198
G3X-23.5598Y-28.7318I-.7874J-.0711
G3X-25.5054Y-30.9848I.315J-2.239
G3X-22.6257Y-33.6982I2.7661J.0508
G3X-19.6558Y-31.9316I.2153J3.0169
G3X-19.2462Y-29.2055I-3.8779J1.9768
F150
G1Z-1.905
F400
G3X-10.4401Y-33.4296I17.5469J25.2908
G2X-19.7072Y-35.3498I-17.1799J59.5966
G2X-22.8048Y-35.3498I-1.5488J23.2702
G2X-26.4401Y-33.5832I.5353J5.7252
G2X-26.5678Y-28.8474I2.8797J2.4473
G2X-23.5471Y-27.3882I2.8201J-1.9812
G2X-20.8852Y-29.7434I.0673J-2.6067
G2X-22.7025Y-32.0218I-2.2739J-.0502
G2X-23.803Y-30.4343I-.1949J1.0401
G2X-23.2785Y-30.2425I.4464J-.4064
G3X-22.7025Y-29.4488I-.2946J.8198
G3X-23.5598Y-28.7318I-.7874J-.0711
G3X-25.5054Y-30.9848I.315J-2.239
G3X-22.6257Y-33.6982I2.7661J.0508
G3X-19.6558Y-31.9316I.2153J3.0169
G3X-19.2462Y-29.2055I-3.8779J1.9768
F150
G1Z1.905
G0Z9.525
G40
M9M5

(* SHAPE NR: 65 *)
G0X-6.7875Y-35.3409
M3M8
G42
F400
G1X-7.4212Y-35.2076
G2X-6.651Y-34.4532I.762J-.0082
G0Z1.905
F150
G1Z-.9525
F400
G2X-2.6575Y-38.0886I-.0432J-4.0583
G2X-5.8319Y-41.6725I-3.8322J.1962
G2X-8.6481Y-39.6761I-.3004J2.5603
G2X-6.3824Y-38.6772I1.2541J.2235
G2X-6.2414Y-39.2919I-.8509J-.5181
G3X-4.706Y-39.2278I.7645J.12
G3X-4.8977Y-38.0378I-2.4136J.2216
G3X-6.498Y-36.642I-2.34J-1.0681
G3X-8.3921Y-36.7189I-.8312J-2.8963
G3X-10.2222Y-39.65I1.5704J-3.0175
G3X-7.8804Y-42.799I3.356J.0508
G2X-23.3934Y-36.7062I8.0962J43.4118
G3X-12.0784Y-35.273I1.4288J34.0957
G2X-6.651Y-34.4532I5.9753J-21.1982
F150
G1Z-1.905
F400
G2X-2.6575Y-38.0886I-.0432J-4.0583
G2X-5.8319Y-41.6725I-3.8322J.1962
G2X-8.6481Y-39.6761I-.3004J2.5603
G2X-6.3824Y-38.6772I1.2541J.2235
G2X-6.2414Y-39.2919I-.8509J-.5181
G3X-4.706Y-39.2278I.7645J.12
G3X-4.8977Y-38.0378I-2.4136J.2216
G3X-6.498Y-36.642I-2.34J-1.0681
G3X-8.3921Y-36.7189I-.8312J-2.8963
G3X-10.2222Y-39.65I1.5704J-3.0175
G3X-7.8804Y-42.799I3.356J.0508
G2X-23.3934Y-36.7062I8.0962J43.4118
G3X-12.0784Y-35.273I1.4288J34.0957
G2X-6.651Y-34.4532I5.9753J-21.1982
F150
G1Z1.905
G0Z9.525
G40
M9M5

(* SHAPE NR: 64 *)
G0X6.2859Y-35.3352
M3M8
G42
F400
G1X5.6578Y-35.1777
G2X6.456Y-34.4532I.7613J-.0368
G0Z1.905
F150
G1Z-.9525
F400
G2X13.368Y-35.5797I-1.5151J-31.0667
G3X23.2493Y-36.7062I7.6054J22.8143
G2X7.6848Y-42.7482I-22.9597J36.0807
G3X9.2463Y-41.7239I-1.1773J3.4982
G3X8.8621Y-37.1926I-2.4835J2.0714
G3X4.9968Y-37.5253I-1.7583J-2.192
G3X4.485Y-39.2665I1.6072J-1.4186
G3X6.0465Y-39.215I.776J.1765
G2X6.9679Y-38.1908I.8706J.1429
G2X8.3503Y-39.6761I.0635J-1.3265
G2X5.7906Y-41.6217I-2.1653J.1918
G2X2.4111Y-38.14I.3404J3.7116
G2X6.456Y-34.4532I3.9376J-.2585
F150
G1Z-1.905
F400
G2X13.368Y-35.5797I-1.5151J-31.0667
G3X23.2493Y-36.7062I7.6054J22.8143
G2X7.6848Y-42.7482I-22.9597J36.0807
G3X9.2463Y-41.7239I-1.1773J3.4982
G3X8.8621Y-37.1926I-2.4835J2.0714
G3X4.9968Y-37.5253I-1.7583J-2.192
G3X4.485Y-39.2665I1.6072J-1.4186
G3X6.0465Y-39.215I.776J.1765
G2X6.9679Y-38.1908I.8706J.1429
G2X8.3503Y-39.6761I.0635J-1.3265
G2X5.7906Y-41.6217I-2.1653J.1918
G2X2.4111Y-38.14I.3404J3.7116
G2X6.456Y-34.4532I3.9376J-.2585
F150
G1Z1.905
G0Z9.525
G40
M9M5

(* SHAPE NR: 63 *)
G0X18.1401Y-28.9211
M3M8
G42
F400
G1X18.361Y-28.3121
G2X18.9998Y-29.1801I-.1143J-.7531
G0Z1.905
F150
G1Z-.9525
F400
G3X19.2303Y-31.4325I4.4774J-.6801
G3X22.3533Y-33.6855I3.0683J.9627
G3X25.2209Y-30.9461I.1524J2.7108
G3X23.1985Y-28.8474I-2.0606J.0381
G3X23.147Y-30.2038I.0394J-.6807
G2X22.5838Y-32.0726I-.3817J-.9043
G2X20.6381Y-29.8456I.3753J2.2911
G2X23.8125Y-27.3882I2.6613J-.1581
G2X27.0897Y-30.7162I-.3295J-3.6017
G2X22.686Y-35.273I-4.4031J-.1511
G2X19.6145Y-35.3238I-1.6904J9.2259
G2X10.1937Y-33.3781I6.1849J53.7293
G3X18.9998Y-29.1801I-7.6835J27.451
F150
G1Z-1.905
F400
G3X19.2303Y-31.4325I4.4774J-.6801
G3X22.3533Y-33.6855I3.0683J.9627
G3X25.2209Y-30.9461I.1524J2.7108
G3X23.1985Y-28.8474I-2.0606J.0381
G3X23.147Y-30.2038I.0394J-.6807
G2X22.5838Y-32.0726I-.3817J-.9043
G2X20.6381Y-29.8456I.3753J2.2911
G2X23.8125Y-27.3882I2.6613J-.1581
G2X27.0897Y-30.7162I-.3295J-3.6017
G2X22.686Y-35.273I-4.4031J-.1511
G2X19.6145Y-35.3238I-1.6904J9.2259
G2X10.1937Y-33.3781I6.1849J53.7293
G3X18.9998Y-29.1801I-7.6835J27.451
F150
G1Z1.905
G0Z9.525
G40
M9M5

(* SHAPE NR: 62 *)
G0X28.4474Y-29.3776
M3M8
G42
F400
G1X27.8124Y-29.2506
G2X28.5744Y-28.4886I.762J0
G0Z1.905
F150
G1Z-.9525
F400
G1X30.6349Y-28.4886
G1X32.6962Y-28.4886
G2X28.5744Y-32.7381I-18.7681J14.0792
G1X28.5744Y-30.6133
G1X28.5744Y-28.4886
F150
G1Z-1.905
F400
G1X30.6349Y-28.4886
G1X32.6962Y-28.4886
G2X28.5744Y-32.7381I-18.7681J14.0792
G1X28.5744Y-30.6133
G1X28.5744Y-28.4886
F150
G1Z1.905
G0Z9.525
G40
M9M5

(* SHAPE NR: 61 *)
G0X25.3568Y-23.0296
M3M8
G42
F400
G1X25.4889Y-22.3952
G2X26.2446Y-23.1642I-.0063J-.762
G0Z1.905
F150
G1Z-.9525
F400
G1X26.2318Y-24.6742
G1X26.2192Y-26.1849
G1X24.7853Y-26.1849
G1X23.3521Y-26.1849
G3X26.2446Y-23.1642I-9.2913J11.7932
F150
G1Z-1.905
F400
G1X26.2318Y-24.6742
G1X26.2192Y-26.1849
G1X24.7853Y-26.1849
G1X23.3521Y-26.1849
G3X26.2446Y-23.1642I-9.2913J11.7932
F150
G1Z1.905
G0Z9.525
G40
M9M5

(* SHAPE NR: 60 *)
G0X30.0031Y-19.4456
M3M8
G42
F400
G1X29.5389Y-19.8971
G2X29.3421Y-18.8373I.4318J.628
G0Z1.905
F150
G1Z-.9525
F400
G3X33.4893Y-10.1848I-25.6064J17.5933
G2X35.3326Y-19.8615I-50.3625J-14.6069
G2X35.3841Y-21.8072I-33.3451J-1.851
G2X32.312Y-26.9786I-5.0863J-.4762
G2X27.3964Y-23.241I-1.0884J3.669
G2X29.9568Y-20.527I2.4638J.24
G2X32.056Y-22.5241I.167J-1.9266
G2X30.3663Y-23.2537I-.9411J-.1416
G3X29.6113Y-22.4599I-.6699J.1187
G3X28.8684Y-23.2537I-.0038J-.7404
G3X31.0572Y-25.1479I2.0974J.2121
G3X33.7966Y-22.2421I-.04J2.7819
G3X31.3773Y-19.1192I-3.328J-.0794
G3X29.3421Y-18.8373I-1.6485J-4.417
F150
G1Z-1.905
F400
G3X33.4893Y-10.1848I-25.6064J17.5933
G2X35.3326Y-19.8615I-50.3625J-14.6069
G2X35.3841Y-21.8072I-33.3451J-1.851
G2X32.312Y-26.9786I-5.0863J-.4762
G2X27.3964Y-23.241I-1.0884J3.669
G2X29.9568Y-20.527I2.4638J.24
G2X32.056Y-22.5241I.167J-1.9266
G2X30.3663Y-23.2537I-.9411J-.1416
G3X29.6113Y-22.4599I-.6699J.1187
G3X28.8684Y-23.2537I-.0038J-.7404
G3X31.0572Y-25.1479I2.0974J.2121
G3X33.7966Y-22.2421I-.04J2.7819
G3X31.3773Y-19.1192I-3.328J-.0794
G3X29.3421Y-18.8373I-1.6485J-4.417
F150
G1Z1.905
G0Z9.525
G40
M9M5

(* SHAPE NR: 59 *)
G0X-1.4123Y-21.9386
M3M8
G42
F400
G1X-1.1779Y-21.3347
G2X-.5582Y-22.2167I-.1314J-.7506
G0Z1.905
F150
G1Z-.9525
F400
G1X-1.4675Y-27.4136
G1X-2.3762Y-32.6104
G1X-2.3247Y-27.3622
G1X-2.2739Y-22.1145
G3X-.5582Y-22.2167I1.7437J14.7917
F150
G1Z-1.905
F400
G1X-1.4675Y-27.4136
G1X-2.3762Y-32.6104
G1X-2.3247Y-27.3622
G1X-2.2739Y-22.1145
G3X-.5582Y-22.2167I1.7437J14.7917
F150
G1Z1.905
G0Z9.525
G40
M9M5

(* SHAPE NR: 58 *)
G0X-.5302Y-25.3263
M3M8
G42
F400
G1X-.5588Y-24.6793
G2X.3632Y-25.2374I.1816J-.7398
G0Z1.905
F150
G1Z-.9525
F400
G1X1.2719Y-28.937
G1X2.1806Y-32.6358
G2X-.7887Y-32.7381I-1.9075J12.2136
G1X-.2127Y-28.9877
G1X.3632Y-25.2374
F150
G1Z-1.905
F400
G1X1.2719Y-28.937
G1X2.1806Y-32.6358
G2X-.7887Y-32.7381I-1.9075J12.2136
G1X-.2127Y-28.9877
G1X.3632Y-25.2374
F150
G1Z1.905
G0Z9.525
G40
M9M5

(* SHAPE NR: 57 *)
G0X1.2376Y-23.0581
M3M8
G42
F400
G1X.5994Y-22.9521
G2X1.3361Y-22.1653I.7613J.0248
G0Z1.905
F150
G1Z-.9525
F400
G3X10.1937Y-19.7593I-.6477J19.8895
G1X12.0364Y-24.6488
G1X13.8798Y-29.5383
G2X3.8449Y-32.4567I-13.6551J28.2416
G1X2.5902Y-27.3113
G1X1.3361Y-22.1653
F150
G1Z-1.905
F400
G3X10.1937Y-19.7593I-.6477J19.8895
G1X12.0364Y-24.6488
G1X13.8798Y-29.5383
G2X3.8449Y-32.4567I-13.6551J28.2416
G1X2.5902Y-27.3113
G1X1.3361Y-22.1653
F150
G1Z1.905
G0Z9.525
G40
M9M5

(* SHAPE NR: 56 *)
G0X-4.5167Y-21.8167
M3M8
G42
F400
G1X-4.3777Y-21.1842
G2X-3.6303Y-21.9608I-.0146J-.762
G0Z1.905
F150
G1Z-.9525
F400
G1X-3.7332Y-27.2345
G1X-3.8354Y-32.5082
G2X-11.8738Y-30.6133I4.0812J35.3181
G1X-10.7728Y-25.3911
G1X-9.6723Y-20.1689
G3X-3.6303Y-21.9608I9.5199J21.0153
F150
G1Z-1.905
F400
G1X-3.7332Y-27.2345
G1X-3.8354Y-32.5082
G2X-11.8738Y-30.6133I4.0812J35.3181
G1X-10.7728Y-25.3911
G1X-9.6723Y-20.1689
G3X-3.6303Y-21.9608I9.5199J21.0153
F150
G1Z1.905
G0Z9.525
G40
M9M5

(* SHAPE NR: 55 *)
G0X-11.289Y-18.8798
M3M8
G42
F400
G1X-10.7804Y-18.4798
G2X-10.6959Y-19.5542I-.4953J-.5791
G0Z1.905
F150
G1Z-.9525
F400
G1X-14.165Y-23.6118
G1X-17.6339Y-27.6695
G1X-14.8177Y-23.2277
G1X-12.0015Y-18.7865
G3X-10.6959Y-19.5542I3.0626J3.7129
F150
G1Z-1.905
F400
G1X-14.165Y-23.6118
G1X-17.6339Y-27.6695
G1X-14.8177Y-23.2277
G1X-12.0015Y-18.7865
G3X-10.6959Y-19.5542I3.0626J3.7129
F150
G1Z1.905
G0Z9.525
G40
M9M5

(* SHAPE NR: 54 *)
G0X-12.3393Y-22.1926
M3M8
G42
F400
G1X-12.0491Y-21.6135
G2X-11.5151Y-22.5495I-.2013J-.7347
G0Z1.905
F150
G1Z-.9525
F400
G1X-12.514Y-26.1976
G1X-13.5121Y-29.8456
G2X-16.2001Y-28.4886I2.5121J8.3172
G1X-13.8576Y-25.5194
G1X-11.5151Y-22.5495
F150
G1Z-1.905
F400
G1X-12.514Y-26.1976
G1X-13.5121Y-29.8456
G2X-16.2001Y-28.4886I2.5121J8.3172
G1X-13.8576Y-25.5194
G1X-11.5151Y-22.5495
F150
G1Z1.905
G0Z9.525
G40
M9M5

(* SHAPE NR: 53 *)
G0X-13.7008Y-17.5285
M3M8
G42
F400
G1X-13.2467Y-17.0663
G2X-13.0258Y-18.121I-.4166J-.6382
G0Z1.905
F150
G1Z-.9525
F400
G1X-15.9182Y-22.5495
G1X-18.8112Y-26.9786
G1X-19.2335Y-26.7094
G1X-19.6558Y-26.4408
G1X-16.7119Y-22.0377
G1X-13.7681Y-17.6346
G1X-13.3966Y-17.8778
G1X-13.0258Y-18.121
F150
G1Z-1.905
F400
G1X-15.9182Y-22.5495
G1X-18.8112Y-26.9786
G1X-19.2335Y-26.7094
G1X-19.6558Y-26.4408
G1X-16.7119Y-22.0377
G1X-13.7681Y-17.6346
G1X-13.3966Y-17.8778
G1X-13.0258Y-18.121
F150
G1Z1.905
G0Z9.525
G40
M9M5

(* SHAPE NR: 52 *)
G0X-15.3746Y-16.2052
M3M8
G42
F400
G1X-14.9085Y-15.755
G2X-14.7155Y-16.8154I-.4331J-.6267
G0Z1.905
F150
G1Z-.9525
F400
G1X-17.7235Y-21.1671
G1X-20.7315Y-25.5194
G2X-25.0577Y-21.2439I15.7702J20.2857
G1X-21.4738Y-17.4041
G1X-17.8899Y-13.5642
G3X-14.7155Y-16.8154I11.7875J8.3337
F150
G1Z-1.905
F400
G1X-17.7235Y-21.1671
G1X-20.7315Y-25.5194
G2X-25.0577Y-21.2439I15.7702J20.2857
G1X-21.4738Y-17.4041
G1X-17.8899Y-13.5642
G3X-14.7155Y-16.8154I11.7875J8.3337
F150
G1Z1.905
G0Z9.525
G40
M9M5

(* SHAPE NR: 51 *)
G0X-27.2809Y-23.5414
M3M8
G42
F400
G1X-27.5387Y-22.947
G2X-26.4782Y-23.1381I.4343J-.6261
G0Z1.905
F150
G1Z-.9525
F400
G3X-23.509Y-26.2356I11.2478J7.8105
G1X-24.9936Y-26.2356
G1X-26.4782Y-26.2356
G1X-26.4782Y-24.6869
G1X-26.4782Y-23.1381
F150
G1Z-1.905
F400
G3X-23.509Y-26.2356I11.2478J7.8105
G1X-24.9936Y-26.2356
G1X-26.4782Y-26.2356
G1X-26.4782Y-24.6869
G1X-26.4782Y-23.1381
F150
G1Z1.905
G0Z9.525
G40
M9M5

(* SHAPE NR: 50 *)
G0X-29.7097Y-28.3616
M3M8
G42
F400
G1X-29.5828Y-27.7266
G2X-28.8207Y-28.4886I0J-.762
G0Z1.905
F150
G1Z-.9525
F400
G1X-28.8207Y-30.5625
G1X-28.8207Y-32.6358
G2X-32.9679Y-28.4886I18.8576J23.0048
G1X-30.8946Y-28.4886
G1X-28.8207Y-28.4886
F150
G1Z-1.905
F400
G1X-28.8207Y-30.5625
G1X-28.8207Y-32.6358
G2X-32.9679Y-28.4886I18.8576J23.0048
G1X-30.8946Y-28.4886
G1X-28.8207Y-28.4886
F150
G1Z1.905
G0Z9.525
G40
M9M5

(* SHAPE NR: 49 *)
G0X-29.2868Y-18.0346
M3M8
G42
F400
G1X-28.6823Y-18.2677
G2X-29.5631Y-18.8887I-.7506J.1302
G0Z1.905
F150
G1Z-.9525
F400
G3X-32.7635Y-19.7333I-.6776J-3.9167
G3X-33.5058Y-24.0341I2.1781J-2.5902
G3X-29.8958Y-24.6488I2.1165J1.5221
G3X-29.1281Y-23.1896I-.9373J1.4249
G3X-30.4336Y-22.7159I-.7423J-.0095
G2X-30.8305Y-23.4842I-1.9107J.501
G2X-32.3024Y-22.4345I-.4979J.8585
G2X-30.165Y-20.6553I1.9222J-.1359
G2X-27.8098Y-23.2664I.0026J-2.366
G2X-31.5601Y-26.9018I-3.2639J-.3848
G2X-34.9136Y-24.6488I-.0635J3.5274
G2X-35.6051Y-21.0648I7.199J3.2468
G2X-35.4254Y-18.4023I29.4164J-.6426
G2X-33.7103Y-10.0565I60.7758J-8.1413
G3X-29.5631Y-18.8887I26.1163J6.8739
F150
G1Z-1.905
F400
G3X-32.7635Y-19.7333I-.6776J-3.9167
G3X-33.5058Y-24.0341I2.1781J-2.5902
G3X-29.8958Y-24.6488I2.1165J1.5221
G3X-29.1281Y-23.1896I-.9373J1.4249
G3X-30.4336Y-22.7159I-.7423J-.0095
G2X-30.8305Y-23.4842I-1.9107J.501
G2X-32.3024Y-22.4345I-.4979J.8585
G2X-30.165Y-20.6553I1.9222J-.1359
G2X-27.8098Y-23.2664I.0026J-2.366
G2X-31.5601Y-26.9018I-3.2639J-.3848
G2X-34.9136Y-24.6488I-.0635J3.5274
G2X-35.6051Y-21.0648I7.199J3.2468
G2X-35.4254Y-18.4023I29.4164J-.6426
G2X-33.7103Y-10.0565I60.7758J-8.1413
G3X-29.5631Y-18.8887I26.1163J6.8739
F150
G1Z1.905
G0Z9.525
G40
M9M5

(* SHAPE NR: 48 *)
G0X-35.666Y-6.7354
M3M8
G42
F400
G1X-35.4343Y-6.1309
G2X-34.8113Y-7.0104I-.1283J-.7512
G0Z1.905
F150
G1Z-.9525
F400
G1X-35.1695Y-9.1097
G1X-35.5283Y-11.209
G3X-37.1665Y-22.9845I34.664J-10.8249
G2X-43.0543Y-7.4714I37.399J23.0683
G3X-37.9603Y-9.3142I3.1547J.7576
G3X-36.9233Y-6.2039I-1.6383J2.2739
G3X-39.3808Y-4.3225I-2.3787J-.5607
G3X-39.4062Y-6.0122I-.0127J-.8446
G2X-39.9821Y-8.2391I-.2883J-1.1138
G2X-41.9792Y-5.628I.4363J2.4028
G2X-38.4467Y-2.3514I3.5846J-.3219
G2X-34.8113Y-7.0104I-.2794J-3.9656
F150
G1Z-1.905
F400
G1X-35.1695Y-9.1097
G1X-35.5283Y-11.209
G3X-37.1665Y-22.9845I34.664J-10.8249
G2X-43.0543Y-7.4714I37.399J23.0683
G3X-37.9603Y-9.3142I3.1547J.7576
G3X-36.9233Y-6.2039I-1.6383J2.2739
G3X-39.3808Y-4.3225I-2.3787J-.5607
G3X-39.4062Y-6.0122I-.0127J-.8446
G2X-39.9821Y-8.2391I-.2883J-1.1138
G2X-41.9792Y-5.628I.4363J2.4028
G2X-38.4467Y-2.3514I3.5846J-.3219
G2X-34.8113Y-7.0104I-.2794J-3.9656
F150
G1Z1.905
G0Z9.525
G40
M9M5

(* SHAPE NR: 47 *)
G0X35.56Y-7.5006
M3M8
G42
F400
G1X35.5949Y-8.1477
G2X34.6672Y-7.5991I-.1899J.7379
G0Z1.905
F150
G1Z-.9525
F400
G2X35.6654Y-3.5541I4.259J1.0941
G2X40.8368Y-3.5033I2.6054J-1.945
G2X41.6814Y-5.7048I-2.112J-2.0733
G2X39.6977Y-8.3033I-2.3768J-.242
G2X38.8912Y-5.9608I-.1899J1.2446
G1X39.022Y-5.929
G1X39.1535Y-5.8966
G1X39.3548Y-5.8903
G1X39.5567Y-5.8839
G3X39.0703Y-4.3733I-.3981J.7055
G3X37.7901Y-4.7574I-.0762J-2.0714
G3X36.6128Y-7.0619I1.5634J-2.2524
G3X39.7358Y-9.9289I3.0512J.1892
G3X42.8079Y-7.5736I-.186J3.4233
G2X36.8687Y-22.9336I-42.9628J7.7838
G3X35.4863Y-12.54I-36.7652J.3988
G2X34.6672Y-7.5991I122.1657J22.7939
F150
G1Z-1.905
F400
G2X35.6654Y-3.5541I4.259J1.0941
G2X40.8368Y-3.5033I2.6054J-1.945
G2X41.6814Y-5.7048I-2.112J-2.0733
G2X39.6977Y-8.3033I-2.3768J-.242
G2X38.8912Y-5.9608I-.1899J1.2446
G1X39.022Y-5.929
G1X39.1535Y-5.8966
G1X39.3548Y-5.8903
G1X39.5567Y-5.8839
G3X39.0703Y-4.3733I-.3981J.7055
G3X37.7901Y-4.7574I-.0762J-2.0714
G3X36.6128Y-7.0619I1.5634J-2.2524
G3X39.7358Y-9.9289I3.0512J.1892
G3X42.8079Y-7.5736I-.186J3.4233
G2X36.8687Y-22.9336I-42.9628J7.7838
G3X35.4863Y-12.54I-36.7652J.3988
G2X34.6672Y-7.5991I122.1657J22.7939
F150
G1Z1.905
G0Z9.525
G40
M9M5

(* SHAPE NR: 46 *)
G0X34.8475Y-1.397
M3M8
G42
F400
G1X34.2125Y-1.27
G2X34.9745Y-.508I.762J0
G0Z1.905
F150
G1Z-.9525
F400
G1X36.3436Y-.508
G1X37.7133Y-.508
G1X36.3436Y-1.545
G1X34.9745Y-2.5813
G1X34.9745Y-1.545
G1X34.9745Y-.508
F150
G1Z-1.905
F400
G1X36.3436Y-.508
G1X37.7133Y-.508
G1X36.3436Y-1.545
G1X34.9745Y-2.5813
G1X34.9745Y-1.545
G1X34.9745Y-.508
F150
G1Z1.905
G0Z9.525
G40
M9M5

(* SHAPE NR: 45 *)
G0X35.8635Y.2095
M3M8
G42
F400
G1X35.7365Y-.4254
G2X34.9745Y.3365I0J.762
G0Z1.905
F150
G1Z-.9525
F400
G1X34.9745Y1.3735
G1X34.9745Y2.4105
G1X36.3436Y1.3735
G1X37.7133Y.3365
G1X36.3436Y.3365
G1X34.9745Y.3365
F150
G1Z-1.905
F400
G1X34.9745Y1.3735
G1X34.9745Y2.4105
G1X36.3436Y1.3735
G1X37.7133Y.3365
G1X36.3436Y.3365
G1X34.9745Y.3365
F150
G1Z1.905
G0Z9.525
G40
M9M5

(* SHAPE NR: 44 *)
G0X21.6999Y-8.2143
M3M8
G42
F400
G1X21.3188Y-8.7382
G2X20.9455Y-7.7273I.3188J.6921
G0Z1.905
F150
G1Z-.9525
F400
G3X22.1234Y-3.1191I-11.9577J5.5105
G1X27.3964Y-3.1445
G1X32.6701Y-3.1706
G2X30.3149Y-12.3863I-29.932J2.74
G1X25.6305Y-10.0565
G1X20.9455Y-7.7273
F150
G1Z-1.905
F400
G3X22.1234Y-3.1191I-11.9577J5.5105
G1X27.3964Y-3.1445
G1X32.6701Y-3.1706
G2X30.3149Y-12.3863I-29.932J2.74
G1X25.6305Y-10.0565
G1X20.9455Y-7.7273
F150
G1Z1.905
G0Z9.525
G40
M9M5

(* SHAPE NR: 43 *)
G0X22.2009Y-1.5246
M3M8
G42
F400
G1X21.5659Y-1.3976
G2X22.3279Y-.6356I.762J0
G0Z1.905
F150
G1Z-.9525
F400
G1X27.5374Y-.6356
G1X32.7469Y-.6356
G1X32.7469Y-1.2376
G1X32.7469Y-1.839
G1X27.5374Y-1.8136
G1X22.3279Y-1.7881
G1X22.3279Y-1.2122
G1X22.3279Y-.6356
F150
G1Z-1.905
F400
G1X27.5374Y-.6356
G1X32.7469Y-.6356
G1X32.7469Y-1.2376
G1X32.7469Y-1.839
G1X27.5374Y-1.8136
G1X22.3279Y-1.7881
G1X22.3279Y-1.2122
G1X22.3279Y-.6356
F150
G1Z1.905
G0Z9.525
G40
M9M5

(* SHAPE NR: 42 *)
G0X23.1654Y.4661
M3M8
G42
F400
G1X23.0384Y-.1689
G2X22.2764Y.5931I0J.762
G0Z1.905
F150
G1Z-.9525
F400
G1X22.2764Y1.1303
G1X22.2764Y1.6681
G1X27.5374Y1.6681
G1X32.7984Y1.6681
G1X32.7984Y1.1303
G1X32.7984Y.5931
G1X27.5374Y.5931
G1X22.2764Y.5931
F150
G1Z-1.905
F400
G1X22.2764Y1.1303
G1X22.2764Y1.6681
G1X27.5374Y1.6681
G1X32.7984Y1.6681
G1X32.7984Y1.1303
G1X32.7984Y.5931
G1X27.5374Y.5931
G1X22.2764Y.5931
F150
G1Z1.905
G0Z9.525
G40
M9M5

(* SHAPE NR: 41 *)
G0X23.0213Y2.9705
M3M8
G42
F400
G1X22.9832Y2.3241
G2X22.1234Y2.9737I-.1048J.755
G0Z1.905
F150
G1Z-.9525
F400
G3X19.819Y10.4489I-24.2151J-3.3712
G1X24.3757Y13.0855
G1X28.9325Y15.7226
G2X32.6193Y3.0251I-26.7335J-14.645
G1X27.371Y2.9991
G1X22.1234Y2.9737
F150
G1Z-1.905
F400
G3X19.819Y10.4489I-24.2151J-3.3712
G1X24.3757Y13.0855
G1X28.9325Y15.7226
G2X32.6193Y3.0251I-26.7335J-14.645
G1X27.371Y2.9991
G1X22.1234Y2.9737
F150
G1Z1.905
G0Z9.525
G40
M9M5

(* SHAPE NR: 40 *)
G0X19.9904Y12.0542
M3M8
G42
F400
G1X20.1911Y11.4382
G2X19.1535Y11.7291I-.3734J.6642
G0Z1.905
F150
G1Z-.9525
F400
G1X18.923Y12.1386
G1X18.6925Y12.5483
G1X23.1216Y15.2616
G1X27.5501Y17.975
G1X27.8829Y17.4631
G1X28.2156Y16.9513
G1X23.6849Y14.3402
G1X19.1535Y11.7291
F150
G1Z-1.905
F400
G1X18.923Y12.1386
G1X18.6925Y12.5483
G1X23.1216Y15.2616
G1X27.5501Y17.975
G1X27.8829Y17.4631
G1X28.2156Y16.9513
G1X23.6849Y14.3402
G1X19.1535Y11.7291
F150
G1Z1.905
G0Z9.525
G40
M9M5

(* SHAPE NR: 39 *)
G0X18.5611Y14.2043
M3M8
G42
F400
G1X18.8373Y13.6182
G2X17.7711Y13.7769I-.4534J.6121
G0Z1.905
F150
G1Z-.9525
F400
G3X10.9614Y19.8183I-17.7603J-13.1591
G1X13.6493Y24.2729
G1X16.3373Y28.7274
G2X26.6801Y19.1014I-15.4115J-26.9278
G1X22.2256Y16.4395
G1X17.7711Y13.7769
F150
G1Z-1.905
F400
G3X10.9614Y19.8183I-17.7603J-13.1591
G1X13.6493Y24.2729
G1X16.3373Y28.7274
G2X26.6801Y19.1014I-15.4115J-26.9278
G1X22.2256Y16.4395
G1X17.7711Y13.7769
F150
G1Z1.905
G0Z9.525
G40
M9M5

(* SHAPE NR: 38 *)
G0X35.5702Y7.46
M3M8
G42
F400
G1X35.2838Y6.879
G2X34.744Y7.8118I.1969J.736
G0Z1.905
F150
G1Z-.9525
F400
G3X36.8173Y22.8905I-59.3223J15.8401
G2X42.7565Y7.2745I-36.6478J-22.8752
G3X37.9438Y9.1173I-3.0486J-.7544
G3X37.3806Y4.9194I1.3532J-2.3184
G3X39.1217Y4.151I1.6859J1.4649
G3X39.4799Y5.7131I-.0305J.8287
G2X38.6861Y5.943I.6312J3.6551
G2X38.6988Y7.735I.816J.8903
G2X40.6317Y7.735I.9665J-1.0262
G2X40.7213Y3.2169I-2.1539J-2.3025
G2X35.6781Y3.3445I-2.46J2.4854
G2X34.744Y7.8118I4.0595J3.1807
F150
G1Z-1.905
F400
G3X36.8173Y22.8905I-59.3223J15.8401
G2X42.7565Y7.2745I-36.6478J-22.8752
G3X37.9438Y9.1173I-3.0486J-.7544
G3X37.3806Y4.9194I1.3532J-2.3184
G3X39.1217Y4.151I1.6859J1.4649
G3X39.4799Y5.7131I-.0305J.8287
G2X38.6861Y5.943I.6312J3.6551
G2X38.6988Y7.735I.816J.8903
G2X40.6317Y7.735I.9665J-1.0262
G2X40.7213Y3.2169I-2.1539J-2.3025
G2X35.6781Y3.3445I-2.46J2.4854
G2X34.744Y7.8118I4.0595J3.1807
F150
G1Z1.905
G0Z9.525
G40
M9M5

(* SHAPE NR: 37 *)
G0X29.0658Y17.8225
M3M8
G42
F400
G1X28.4486Y18.0194
G2X29.2913Y18.6919I.7576J-.0851
G0Z1.905
F150
G1Z-.9525
F400
G3X33.2594Y20.3562I.4921J4.3891
G3X33.1826Y23.8633I-2.9191J1.6904
G3X31.0064Y24.913I-1.8955J-1.1487
G3X28.9585Y23.4537I.0533J-2.2415
G3X29.5472Y22.3272I.6807J-.3613
G3X30.3663Y23.0441I.1422J.6636
G2X31.6719Y23.1851I.6845J-.2222
G2X31.6719Y21.0985I-1.1919J-1.0433
G2X28.0365Y21.2522I-1.7532J1.5939
G2X28.0625Y25.1435I2.4638J1.9297
G2X31.1855Y26.7303I3.0105J-2.0574
G2X34.4367Y24.9384I.2165J-3.4519
G2X35.3841Y20.3816I-7.5876J-3.9541
G2X33.4384Y10.0393I-44.2951J2.9788
G3X29.2913Y18.6919I-30.1466J-9.1287
F150
G1Z-1.905
F400
G3X33.2594Y20.3562I.4921J4.3891
G3X33.1826Y23.8633I-2.9191J1.6904
G3X31.0064Y24.913I-1.8955J-1.1487
G3X28.9585Y23.4537I.0533J-2.2415
G3X29.5472Y22.3272I.6807J-.3613
G3X30.3663Y23.0441I.1422J.6636
G2X31.6719Y23.1851I.6845J-.2222
G2X31.6719Y21.0985I-1.1919J-1.0433
G2X28.0365Y21.2522I-1.7532J1.5939
G2X28.0625Y25.1435I2.4638J1.9297
G2X31.1855Y26.7303I3.0105J-2.0574
G2X34.4367Y24.9384I.2165J-3.4519
G2X35.3841Y20.3816I-7.5876J-3.9541
G2X33.4384Y10.0393I-44.2951J2.9788
G3X29.2913Y18.6919I-30.1466J-9.1287
F150
G1Z1.905
G0Z9.525
G40
M9M5

(* SHAPE NR: 35 *)
G0X29.4119Y28.0625
M3M8
G42
F400
G1X29.2849Y27.4275
G2X28.5229Y28.1896I0J.762
G0Z1.905
F150
G1Z-.9525
F400
G1X28.5229Y30.372
G1X28.5229Y32.5546
G2X32.773Y28.2022I-18.5865J-22.3996
G1X30.6476Y28.1959
G1X28.5229Y28.1896
F150
G1Z-1.905
F400
G1X28.5229Y30.372
G1X28.5229Y32.5546
G2X32.773Y28.2022I-18.5865J-22.3996
G1X30.6476Y28.1959
G1X28.5229Y28.1896
F150
G1Z1.905
G0Z9.525
G40
M9M5

(* SHAPE NR: 34 *)
G0X19.6018Y29.6259
M3M8
G42
F400
G1X20.0393Y29.1484
G2X18.9744Y28.9833I-.6153J.4496
G0Z1.905
F150
G1Z-.9525
F400
G3X10.2444Y33.2581I-16.3849J-22.406
G2X20.9201Y35.1015I12.7692J-42.1214
G1X21.5087Y35.1015
G1X22.0974Y35.1015
G2X25.8604Y33.6169I-.1156J-5.8052
G2X26.0655Y28.3947I-2.747J-2.7229
G2X21.1245Y28.241I-2.5349J1.9901
G2X21.1245Y31.0826I1.8307J1.4205
G2X23.5058Y31.3639I1.2859J-.6668
G2X23.147Y30.0069I-.6909J-.5436
G3X23.0702Y28.6245I.0591J-.6966
G3X25.1949Y30.8267I.014J2.1126
G3X22.3533Y33.4378I-2.5591J.0673
G3X19.6145Y32.0555I-.0959J-3.215
G3X18.9744Y28.9833I4.5885J-2.5584
F150
G1Z-1.905
F400
G3X10.2444Y33.2581I-16.3849J-22.406
G2X20.9201Y35.1015I12.7692J-42.1214
G1X21.5087Y35.1015
G1X22.0974Y35.1015
G2X25.8604Y33.6169I-.1156J-5.8052
G2X26.0655Y28.3947I-2.747J-2.7229
G2X21.1245Y28.241I-2.5349J1.9901
G2X21.1245Y31.0826I1.8307J1.4205
G2X23.5058Y31.3639I1.2859J-.6668
G2X23.147Y30.0069I-.6909J-.5436
G3X23.0702Y28.6245I.0591J-.6966
G3X25.1949Y30.8267I.014J2.1126
G3X22.3533Y33.4378I-2.5591J.0673
G3X19.6145Y32.0555I-.0959J-3.215
G3X18.9744Y28.9833I4.5885J-2.5584
F150
G1Z1.905
G0Z9.525
G40
M9M5

(* SHAPE NR: 33 *)
G0X4.5288Y22.2517
M3M8
G42
F400
G1X4.4018Y21.6167
G2X3.6398Y22.3787I0J.762
G0Z1.905
F150
G1Z-.9525
F400
G1X3.6398Y27.6517
G1X3.6398Y32.9254
G2X14.8012Y29.5466I-2.2543J-27.5698
G1X12.2415Y25.0406
G1X9.6812Y20.5353
G3X3.6398Y22.3787I-10.181J-22.5476
F150
G1Z-1.905
F400
G1X3.6398Y27.6517
G1X3.6398Y32.9254
G2X14.8012Y29.5466I-2.2543J-27.5698
G1X12.2415Y25.0406
G1X9.6812Y20.5353
G3X3.6398Y22.3787I-10.181J-22.5476
F150
G1Z1.905
G0Z9.525
G40
M9M5

(* SHAPE NR: 32 *)
G0X2.0199Y22.5076
M3M8
G42
F400
G1X1.893Y21.8726
G2X1.1309Y22.6346I0J.762
G0Z1.905
F150
G1Z-.9525
F400
G1X1.1309Y27.8949
G1X1.1309Y33.1559
G1X1.7069Y33.1559
G1X2.2828Y33.1559
G1X2.2828Y27.8949
G1X2.2828Y22.6346
G1X1.7069Y22.6346
G1X1.1309Y22.6346
F150
G1Z-1.905
F400
G1X1.1309Y27.8949
G1X1.1309Y33.1559
G1X1.7069Y33.1559
G1X2.2828Y33.1559
G1X2.2828Y27.8949
G1X2.2828Y22.6346
G1X1.7069Y22.6346
G1X1.1309Y22.6346
F150
G1Z1.905
G0Z9.525
G40
M9M5

(* SHAPE NR: 31 *)
G0X.8001Y22.8486
M3M8
G42
F400
G1X.9195Y22.2117
G2X-.0724Y22.6346I-.2845J.7067
G0Z1.905
F150
G1Z-.9525
F400
G1X-1.0446Y25.0539
G1X-2.0174Y27.4726
G1X-1.0446Y30.327
G1X-.0724Y33.1813
G1X-.0724Y27.9083
G1X-.0724Y22.6346
F150
G1Z-1.905
F400
G1X-1.0446Y25.0539
G1X-2.0174Y27.4726
G1X-1.0446Y30.327
G1X-.0724Y33.1813
G1X-.0724Y27.9083
G1X-.0724Y22.6346
F150
G1Z1.905
G0Z9.525
G40
M9M5

(* SHAPE NR: 30 *)
G0X-1.4288Y23.4683
M3M8
G42
F400
G1X-.7982Y23.3223
G2X-1.5824Y22.5832I-.7613J.0228
G0Z1.905
F150
G1Z-.9525
F400
G3X-3.5027Y22.3914I-.2229J-7.4689
G1X-3.1185Y24.0614
G1X-2.7343Y25.7321
G1X-2.1583Y24.1573
G1X-1.5824Y22.5832
F150
G1Z-1.905
F400
G3X-3.5027Y22.3914I-.2229J-7.4689
G1X-3.1185Y24.0614
G1X-2.7343Y25.7321
G1X-2.1583Y24.1573
G1X-1.5824Y22.5832
F150
G1Z1.905
G0Z9.525
G40
M9M5

(* SHAPE NR: 29 *)
G0X-21.5602Y-13.6455
M3M8
G42
F400
G1X-21.0255Y-13.2797
G2X-21.0128Y-14.3574I-.5321J-.5454
G0Z1.905
F150
G1Z-.9525
F400
G1X-23.6753Y-17.084
G1X-26.3379Y-19.8101
G2X-28.0784Y-17.225I7.7045J7.0663
G1X-24.5459Y-15.7912
G1X-21.0128Y-14.3574 
F150
G1Z-1.905
F400
G1X-23.6753Y-17.084
G1X-26.3379Y-19.8101
G2X-28.0784Y-17.225I7.7045J7.0663
G1X-24.5459Y-15.7912
G1X-21.0128Y-14.3574
F150
G1Z1.905
G0Z9.525
G40
M9M5 

(* SHAPE NR: 28 *)
G0X-20.2597Y-11.5672
M3M8
G42
F400
G1X-20.466Y-10.9537
G2X-19.4259Y-11.2344I.3797J-.6604
G0Z1.905
F150
G1Z-.9525
F400
G1X-19.1313Y-11.7462
G1X-18.8366Y-12.258
G1X-23.8544Y-14.0246
G1X-28.8722Y-15.7912
G1X-24.149Y-13.5128
G1X-19.4259Y-11.2344
F150
G1Z-1.905
F400
G1X-19.1313Y-11.7462
G1X-18.8366Y-12.258
G1X-23.8544Y-14.0246
G1X-28.8722Y-15.7912
G1X-24.149Y-13.5128
G1X-19.4259Y-11.2344
F150
G1Z1.905
G0Z9.525
G40
M9M5

(* SHAPE NR: 27 *)
G0X-20.3441Y-9.1516
M3M8
G42
F400
G1X-19.718Y-8.9853
G2X-20.0654Y-10.0057I-.6839J-.3365
G0Z1.905
F150
G1Z-.9525
F400
G1X-24.8272Y-12.3482
G1X-29.5891Y-14.6901
G1X-29.7936Y-14.191
G1X-29.9987Y-13.6919
G1X-25.2495Y-11.4262
G1X-20.501Y-9.1605
G1X-20.2832Y-9.5834
G1X-20.0654Y-10.0057
F150
G1Z-1.905
F400
G1X-24.8272Y-12.3482
G1X-29.5891Y-14.6901
G1X-29.7936Y-14.191
G1X-29.9987Y-13.6919
G1X-25.2495Y-11.4262
G1X-20.501Y-9.1605
G1X-20.2832Y-9.5834
G1X-20.0654Y-10.0057
F150
G1Z1.905
G0Z9.525
G40
M9M5

(* SHAPE NR: 26 *)
G0X-21.2268Y-7.3044
M3M8
G42
F400
G1X-20.5988Y-7.1476
G2X-20.9613Y-8.1623I-.689J-.3257
G0Z1.905
F150
G1Z-.9525
F400
G1X-25.7232Y-10.4153
G1X-30.4851Y-12.6683
G1X-30.7283Y-12.105
G1X-30.9715Y-11.5417
G1X-26.1455Y-9.4171
G1X-21.3201Y-7.2917
G1X-21.1411Y-7.7273
G1X-20.9613Y-8.1623
F150
G1Z-1.905
F400
G1X-25.7232Y-10.4153
G1X-30.4851Y-12.6683
G1X-30.7283Y-12.105
G1X-30.9715Y-11.5417
G1X-26.1455Y-9.4171
G1X-21.3201Y-7.2917
G1X-21.1411Y-7.7273
G1X-20.9613Y-8.1623
F150
G1Z1.905
G0Z9.525
G40
M9M5

(* SHAPE NR: 25 *)
G0X-21.8281Y-5.3766
M3M8
G42
F400
G1X-21.195Y-5.2394
G2X-21.5887Y-6.2421I-.6985J-.3048
G0Z1.905
F150
G1Z-.9525
F400
G1X-26.4592Y-8.3674
G1X-31.3296Y-10.4921
G2X-32.8657Y-3.0169I26.1487J9.2684
G1X-27.592Y-3.0423
G1X-22.3183Y-3.0677
G3X-21.5887Y-6.2421I12.4523J1.1912
F150
G1Z-1.905
F400
G1X-26.4592Y-8.3674
G1X-31.3296Y-10.4921
G2X-32.8657Y-3.0169I26.1487J9.2684
G1X-27.592Y-3.0423
G1X-22.3183Y-3.0677
G3X-21.5887Y-6.2421I12.4523J1.1912
F150
G1Z1.905
G0Z9.525
G40
M9M5

(* SHAPE NR: 24 *)
G0X-22.065Y.8439
M3M8
G42
F400
G1X-21.5246Y.4877
G2X-22.5171Y.068I-.7061J.2864
G0Z1.905
F150
G1Z-.9525
F400
G1X-24.1586Y.7334
G1X-25.8001Y1.3995
G1X-24.1167Y1.9463
G1X-22.4339Y2.4936
G3X-22.5171Y.068I14.4951J-1.7113
F150
G1Z-1.905
F400
G1X-24.1586Y.7334
G1X-25.8001Y1.3995
G1X-24.1167Y1.9463
G1X-22.4339Y2.4936
G3X-22.5171Y.068I14.4951J-1.7113
F150
G1Z1.905
G0Z9.525
G40
M9M5

(* SHAPE NR: 23 *)
G0X-29.2544Y1.9825
M3M8
G42
F400
G1X-28.6144Y2.0841
G2X-29.0639Y1.1049I-.7144J-.2648
G0Z1.905
F150
G1Z-.9525
F400
G1X-31.0483Y.3689
G1X-33.0321Y-.367
G2X-33.0321Y2.0904I14.6418J1.2287
G1X-31.0483Y1.5977
G1X-29.0639Y1.1049
F150
G1Z-1.905
F400
G1X-31.0483Y.3689
G1X-33.0321Y-.367
G2X-33.0321Y2.0904I14.6418J1.2287
G1X-31.0483Y1.5977
G1X-29.0639Y1.1049
F150
G1Z1.905
G0Z9.525
G40
M9M5

(* SHAPE NR: 22 *)
G0X-22.8568Y-.4254
M3M8
G42
F400
G1X-22.2218Y-.5525
G2X-22.9838Y-1.3145I-.762J0
G0Z1.905
F150
G1Z-.9525
F400
G1X-26.9138Y-1.3145
G1X-30.8432Y-1.3145
G1X-29.1471Y-.4375
G1X-27.451Y.4394
G1X-25.2178Y-.4375
G1X-22.9838Y-1.3145
F150
G1Z-1.905
F400
G1X-26.9138Y-1.3145
G1X-30.8432Y-1.3145
G1X-29.1471Y-.4375
G1X-27.451Y.4394
G1X-25.2178Y-.4375
G1X-22.9838Y-1.3145
F150
G1Z1.905
G0Z9.525
G40
M9M5

(* SHAPE NR: 21 *)
G0X-19.2475Y13.481
M3M8
G42
F400
G1X-18.7363Y13.8786
G2X-18.6576Y12.8041I-.4979J-.5766
G0Z1.905
F150
G1Z-.9525
F400
G3X-20.0914Y10.4362I6.2643J-5.4102
G1X-21.1791Y11.7926
G1X-22.2675Y13.1496
G1X-20.4622Y12.9769
G1X-18.6576Y12.8041
F150
G1Z-1.905
F400
G3X-20.0914Y10.4362I6.2643J-5.4102
G1X-21.1791Y11.7926
G1X-22.2675Y13.1496
G1X-20.4622Y12.9769
G1X-18.6576Y12.8041
F150
G1Z1.905
G0Z9.525
G40
M9M5

(* SHAPE NR: 20 *)
G0X-22.4149Y5.4236
M3M8
G42
F400
G1X-21.7837Y5.569
G2X-22.1647Y4.5606I-.6947J-.3131
G0Z1.905
F150
G1Z-.9525
F400
G1X-24.7758Y3.3833
G1X-27.3876Y2.2053
G1X-29.9218Y3.2042
G1X-32.4561Y4.2024
G1X-32.6352Y4.2793
G1X-32.8143Y4.3561
G2X-30.3568Y13.1623I30.2616J-3.6989
G1X-27.3361Y13.1623
G1X-24.3154Y13.1623
G1X-22.6003Y10.9861
G1X-20.8852Y8.8106
G3X-22.1647Y4.5606I15.8185J-7.0821
F150
G1Z-1.905
F400
G1X-24.7758Y3.3833
G1X-27.3876Y2.2053
G1X-29.9218Y3.2042
G1X-32.4561Y4.2024
G1X-32.6352Y4.2793
G1X-32.8143Y4.3561
G2X-30.3568Y13.1623I30.2616J-3.6989
G1X-27.3361Y13.1623
G1X-24.3154Y13.1623
G1X-22.6003Y10.9861
G1X-20.8852Y8.8106
G3X-22.1647Y4.5606I15.8185J-7.0821
F150
G1Z1.905
G0Z9.525
G40
M9M5

(* SHAPE NR: 19 *)
G0X-25.4172Y15.5619
M3M8
G42
F400
G1X-24.7822Y15.4349
G2X-25.5441Y14.6729I-.762J0
G0Z1.905
F150
G1Z-.9525
F400
G1X-27.6174Y14.6729
G1X-29.6913Y14.6729
G2X-27.9762Y17.6936I12.0929J-4.8692
G1X-26.7602Y16.183
G1X-25.5441Y14.6729
F150
G1Z-1.905
F400
G1X-27.6174Y14.6729
G1X-29.6913Y14.6729
G2X-27.9762Y17.6936I12.0929J-4.8692
G1X-26.7602Y16.183
G1X-25.5441Y14.6729
F150
G1Z1.905
G0Z9.525
G40
M9M5

(* SHAPE NR: 18 *)
G0X-36.0585Y-.3683
M3M8
G42
F400
G1X-35.9315Y.2667
G2X-35.1695Y-.4953I0J-.762
G0Z1.905
F150
G1Z-.9525
F400
G1X-35.1695Y-1.5957
G1X-35.1695Y-2.6969
G1X-36.5709Y-1.5957
G1X-37.973Y-.4953
G1X-36.5709Y-.4953
G1X-35.1695Y-.4953
F150
G1Z-1.905
F400
G1X-35.1695Y-1.5957
G1X-35.1695Y-2.6969
G1X-36.5709Y-1.5957
G1X-37.973Y-.4953
G1X-36.5709Y-.4953
G1X-35.1695Y-.4953
F150
G1Z1.905
G0Z9.525
G40
M9M5

(* SHAPE NR: 17 *)
G0X-35.0425Y1.1875
M3M8
G42
F400
G1X-34.4075Y1.0604
G2X-35.1695Y.2984I-.762J0
G0Z1.905
F150
G1Z-.9525
F400
G1X-36.5709Y.2984
G1X-37.973Y.2984
G1X-36.5709Y1.3925
G1X-35.1695Y2.4873
G1X-35.1695Y1.3925
G1X-35.1695Y.2984
F150
G1Z-1.905
F400
G1X-36.5709Y.2984
G1X-37.973Y.2984
G1X-36.5709Y1.3925
G1X-35.1695Y2.4873
G1X-35.1695Y1.3925
G1X-35.1695Y.2984
F150
G1Z1.905
G0Z9.525
G40
M9M5

(* SHAPE NR: 16 *)
G0X-35.7238Y6.082
M3M8
G42
F400
G1X-35.5886Y6.7151
G2X-34.8368Y5.943I-.0102J-.762
G0Z1.905
F150
G1Z-.9525
F400
G2X-38.5102Y2.1031I-3.8976J.0514
G2X-41.9411Y5.4566I.1448J3.5795
G2X-39.9314Y8.055I2.3184J.2832
G2X-38.5102Y6.8135I.1143J-1.303
G2X-39.4449Y5.7766I-.7677J-.2476
G3X-40.2514Y4.9835I-.0191J-.7868
G3X-38.8563Y4.2024I1.0103J.1676
G3X-36.9106Y6.7113I-.654J2.5159
G3X-39.9314Y9.6806I-3.1464J-.1791
G3X-43.1057Y7.3254I.0787J-3.4227
G2X-37.1151Y22.8391I41.0312J-6.9304
G3X-35.7327Y11.8313I31.5963J-1.623
G1X-35.579Y11.089
G1X-35.4254Y10.3467
G2X-34.8368Y5.943I-15.146J-4.2666
F150
G1Z-1.905
F400
G2X-38.5102Y2.1031I-3.8976J.0514
G2X-41.9411Y5.4566I.1448J3.5795
G2X-39.9314Y8.055I2.3184J.2832
G2X-38.5102Y6.8135I.1143J-1.303
G2X-39.4449Y5.7766I-.7677J-.2476
G3X-40.2514Y4.9835I-.0191J-.7868
G3X-38.8563Y4.2024I1.0103J.1676
G3X-36.9106Y6.7113I-.654J2.5159
G3X-39.9314Y9.6806I-3.1464J-.1791
G3X-43.1057Y7.3254I.0787J-3.4227
G2X-37.1151Y22.8391I41.0312J-6.9304
G3X-35.7327Y11.8313I31.5963J-1.623
G1X-35.579Y11.089
G1X-35.4254Y10.3467
G2X-34.8368Y5.943I-15.146J-4.2666
F150
G1Z1.905
G0Z9.525
G40
M9M5

(* SHAPE NR: 15 *)
G0X-12.512Y18.2798
M3M8
G42
F400
G1X-12.5229Y17.632
G2X-13.4099Y18.2442I-.1378J.7493
G0Z1.905
F150
G1Z-.9525
F400
G1X-13.723Y19.953
G1X-14.0367Y21.6618
G1X-12.7571Y20.5994
G1X-11.477Y19.5371
G3X-13.4099Y18.2442I2.9566J-6.5113
F150
G1Z-1.905
F400
G1X-13.723Y19.953
G1X-14.0367Y21.6618
G1X-12.7571Y20.5994
G1X-11.477Y19.5371
G3X-13.4099Y18.2442I2.9566J-6.5113
F150
G1Z1.905
G0Z9.525
G40
M9M5

(* SHAPE NR: 14 *)
G0X-17.5488Y15.0393
M3M8
G42
F400
G1X-16.924Y14.8698
G2X-17.7362Y14.1611I-.7601J.0514
G0Z1.905
F150
G1Z-.9525
F400
G1X-20.5651Y14.3529
G1X-23.3934Y14.5447
G1X-25.2114Y16.8999
G1X-27.0288Y19.2551
G2X-20.1682Y26.3722I26.5036J-18.6849
G1X-17.8638Y24.5802
G1X-15.5601Y22.7882
G1X-15.1631Y20.0235
G1X-14.7663Y17.2587
G3X-17.7362Y14.1611I10.9836J-13.502
F150
G1Z-1.905
F400
G1X-20.5651Y14.3529
G1X-23.3934Y14.5447
G1X-25.2114Y16.8999
G1X-27.0288Y19.2551
G2X-20.1682Y26.3722I26.5036J-18.6849
G1X-17.8638Y24.5802
G1X-15.5601Y22.7882
G1X-15.1631Y20.0235
G1X-14.7663Y17.2587
G3X-17.7362Y14.1611I10.9836J-13.502
F150
G1Z1.905
G0Z9.525
G40
M9M5

(* SHAPE NR: 13 *)
G0X-14.9307Y25.3962
M3M8
G42
F400
G1X-14.5358Y24.8825
G2X-15.6115Y24.8107I-.574J.5016
G0Z1.905
F150
G1Z-.9525
F400
G1X-17.1342Y26.1417
G1X-18.6576Y27.4726
G2X-16.3023Y28.8811I4.7885J-5.3365
G1X-15.9569Y26.8459
G1X-15.6115Y24.8107
F150
G1Z-1.905
F400
G1X-17.1342Y26.1417
G1X-18.6576Y27.4726
G2X-16.3023Y28.8811I4.7885J-5.3365
G1X-15.9569Y26.8459
G1X-15.6115Y24.8107
F150
G1Z1.905
G0Z9.525
G40
M9M5

(* SHAPE NR: 12 *)
G0X-9.3974Y20.9664
M3M8
G42
F400
G1X-8.984Y20.468
G2X-10.0559Y20.3562I-.5918J.4801
G0Z1.905
F150
G1Z-.9525
F400
G1X-12.0911Y22.0072
G1X-14.1262Y23.6582
G1X-14.5358Y26.4617
G1X-14.9453Y29.2646
G1X-12.5006Y24.8107
G1X-10.0559Y20.3562
F150
G1Z-1.905
F400
G1X-12.0911Y22.0072
G1X-14.1262Y23.6582
G1X-14.5358Y26.4617
G1X-14.9453Y29.2646
G1X-12.5006Y24.8107
G1X-10.0559Y20.3562
F150
G1Z1.905
G0Z9.525
G40
M9M5

(* SHAPE NR: 11 *)
G0X-1.8593Y29.2741
M3M8
G42
F400
G1X-1.7494Y28.636
G2X-2.7343Y29.0728I-.2743J.7112
G0Z1.905
F150
G1Z-.9525
F400
G1X-3.49Y31.0312
G1X-4.245Y32.9895
G2X-1.5951Y33.1051I1.952J-14.3681
G1X-2.1647Y31.089
G1X-2.7343Y29.0728
F150
G1Z-1.905
F400
G1X-3.49Y31.0312
G1X-4.245Y32.9895
G2X-1.5951Y33.1051I1.952J-14.3681
G1X-2.1647Y31.089
G1X-2.7343Y29.0728
F150
G1Z1.905
G0Z9.525
G40
M9M5

(* SHAPE NR: 10 *)
G0X-7.6086Y21.4033
M3M8
G42
F400
G1X-7.4035Y20.7893
G2X-8.443Y21.0731I-.3778J.6617
G0Z1.905
F150
G1Z-.9525
F400
G1X-11.0674Y25.668
G1X-13.6912Y30.2635
G2X-5.7296Y32.7209I11.5621J-23.3318
G1X-4.6158Y30.0203
G1X-3.5027Y27.319
G1X-4.245Y24.7339
G1X-4.9873Y22.1482
G3X-8.443Y21.0731I1.7342J-11.6662
F150
G1Z-1.905
F400
G1X-11.0674Y25.668
G1X-13.6912Y30.2635
G2X-5.7296Y32.7209I11.5621J-23.3318
G1X-4.6158Y30.0203
G1X-3.5027Y27.319
G1X-4.245Y24.7339
G1X-4.9873Y22.1482
G3X-8.443Y21.0731I1.7342J-11.6662
F150
G1Z1.905
G0Z9.525
G40
M9M5

(* SHAPE NR: 9 *)
G0X-30.1117Y19.3364
M3M8
G42
F400
G1X-29.6317Y19.7707
G2X-29.4735Y18.7046I-.454J-.6121
G0Z1.905
F150
G1Z-.9525
F400
G3X-33.7363Y9.8089I20.8242J-15.447
G2X-35.4768Y18.2315I40.1396J12.6873
G2X-35.2717Y23.6074I13.4627J2.1793
G2X-32.6098Y26.6795I3.8925J-.6839
G2X-29.1281Y25.988I1.0877J-3.6335
G2X-27.7457Y23.1464I-2.1844J-2.8201
G2X-30.2031Y20.3302I-2.5038J-.2953
G2X-32.3539Y22.3399I-.0356J2.1177
G2X-31.3169Y23.4023I1.0071J.0546
G2X-30.4851Y22.66I.0654J-.7645
G3X-29.1922Y22.6727I.6445J.181
G3X-29.8323Y24.3624I-1.8847J.2521
G3X-33.0574Y24.2602I-1.5615J-1.6758
G3X-32.9425Y19.6005I2.1971J-2.2765
G3X-29.4735Y18.7046I2.6683J3.1661
F150
G1Z-1.905
F400
G3X-33.7363Y9.8089I20.8242J-15.447
G2X-35.4768Y18.2315I40.1396J12.6873
G2X-35.2717Y23.6074I13.4627J2.1793
G2X-32.6098Y26.6795I3.8925J-.6839
G2X-29.1281Y25.988I1.0877J-3.6335
G2X-27.7457Y23.1464I-2.1844J-2.8201
G2X-30.2031Y20.3302I-2.5038J-.2953
G2X-32.3539Y22.3399I-.0356J2.1177
G2X-31.3169Y23.4023I1.0071J.0546
G2X-30.4851Y22.66I.0654J-.7645
G3X-29.1922Y22.6727I.6445J.181
G3X-29.8323Y24.3624I-1.8847J.2521
G3X-33.0574Y24.2602I-1.5615J-1.6758
G3X-32.9425Y19.6005I2.1971J-2.2765
G3X-29.4735Y18.7046I2.6683J3.1661
F150
G1Z1.905
G0Z9.525
G40
M9M5

(* SHAPE NR: 7 *)
G0X-18.3528Y28.9211
M3M8
G42
F400
G1X-18.4518Y28.281
G2X-19.2462Y29.0087I-.033J.7613
G0Z1.905
F150
G1Z-.9525
F400
G3X-19.5154Y31.0185I-11.3665J-.4979
G3X-22.4974Y33.4118I-2.853J-.5004
G3X-25.4159Y30.9029I-.2959J-2.6079
G3X-23.803Y28.7014I2.1755J-.0978
G3X-23.3934Y29.9815I.2051J.6401
G2X-23.8544Y31.3639I.2953J.8668
G2X-21.7551Y31.569I1.1386J-.8065
G2X-21.3455Y28.215I-1.2503J-1.8549
G2X-26.0306Y27.9851I-2.46J2.2708
G2X-25.7486Y34.0011I2.4816J2.8981
G2X-21.2179Y35.153I3.8887J-5.8084
G2X-10.5937Y33.2581I-2.2422J-43.3115
G3X-19.2462Y29.0087I9.7656J-30.8185
F150
G1Z-1.905
F400
G3X-19.5154Y31.0185I-11.3665J-.4979
G3X-22.4974Y33.4118I-2.853J-.5004
G3X-25.4159Y30.9029I-.2959J-2.6079
G3X-23.803Y28.7014I2.1755J-.0978
G3X-23.3934Y29.9815I.2051J.6401
G2X-23.8544Y31.3639I.2953J.8668
G2X-21.7551Y31.569I1.1386J-.8065
G2X-21.3455Y28.215I-1.2503J-1.8549
G2X-26.0306Y27.9851I-2.46J2.2708
G2X-25.7486Y34.0011I2.4816J2.8981
G2X-21.2179Y35.153I3.8887J-5.8084
G2X-10.5937Y33.2581I-2.2422J-43.3115
G3X-19.2462Y29.0087I9.7656J-30.8185
F150
G1Z1.905
G0Z9.525
G40
M9M5

(* SHAPE NR: 6 *)
G0X-28.6684Y29.13
M3M8
G42
F400
G1X-28.0333Y29.003
G2X-28.7953Y28.241I-.762J0
G0Z1.905
F150
G1Z-.9525
F400
G1X-30.9328Y28.241
G1X-33.0702Y28.241
G1X-30.9328Y30.3911
G1X-28.7953Y32.5419
G1X-28.7953Y30.3911
G1X-28.7953Y28.241
F150
G1Z-1.905
F400
G1X-30.9328Y28.241
G1X-33.0702Y28.241
G1X-30.9328Y30.3911
G1X-28.7953Y32.5419
G1X-28.7953Y30.3911
G1X-28.7953Y28.241
F150
G1Z1.905
G0Z9.525
G40
M9M5

(* SHAPE NR: 5 *)
G0X1.15Y34.6164
M3M8
G42
F400
G1X1.023Y33.9814
G2X.261Y34.7434I0J.762
G0Z1.905
F150
G1Z-.9525
F400
G1X.261Y36.0871
G1X.261Y37.4314
G1X1.2719Y36.0871
G1X2.2828Y34.7434
G1X1.2719Y34.7434
G1X.261Y34.7434
F150
G1Z-1.905
F400
G1X.261Y36.0871
G1X.261Y37.4314
G1X1.2719Y36.0871
G1X2.2828Y34.7434
G1X1.2719Y34.7434
G1X.261Y34.7434
F150
G1Z1.905
G0Z9.525
G40
M9M5

(* SHAPE NR: 4 *)
G0X-.5848Y35.6324
M3M8
G42
F400
G1X.0502Y35.5054
G2X-.7118Y34.7434I-.762J0
G0Z1.905
F150
G1Z-.9525
F400
G1X-1.7107Y34.7434
G1X-2.7089Y34.7434
G1X-1.7107Y36.0998
G1X-.7118Y37.4567
G1X-.7118Y36.0998
G1X-.7118Y34.7434
F150
G1Z-1.905
F400
G1X-1.7107Y34.7434
G1X-2.7089Y34.7434
G1X-1.7107Y36.0998
G1X-.7118Y37.4567
G1X-.7118Y36.0998
G1X-.7118Y34.7434
F150
G1Z1.905
G0Z9.525
G40
M9M5

(* SHAPE NR: 3 *)
G0X6.2656Y35.139
M3M8
G42
F400
G1X6.8935Y34.9828
G2X6.0973Y34.257I-.7613J.0349
G0Z1.905
F150
G1Z-.9525
F400
G2X2.3089Y38.0968I.1835J3.97
G2X5.7906Y41.5271I3.5903J-.1619
G2X8.4017Y39.4278I.221J-2.3984
G2X5.995Y39.0182I-1.2033J-.2051
G3X4.5104Y38.8137I-.7385J-.1321
G3X7.0193Y36.4071I2.4257J.0178
G3X7.6848Y42.5513I-.1975J3.1293
G2X23.0448Y36.5608I-6.2274J-38.655
G3X15.621Y35.9467I-1.8733J-22.5215
G1X14.5968Y35.7416
G1X13.5725Y35.5365
G2X6.0973Y34.257I-8.8652J29.3046
F150
G1Z-1.905
F400
G2X2.3089Y38.0968I.1835J3.97
G2X5.7906Y41.5271I3.5903J-.1619
G2X8.4017Y39.4278I.221J-2.3984
G2X5.995Y39.0182I-1.2033J-.2051
G3X4.5104Y38.8137I-.7385J-.1321
G3X7.0193Y36.4071I2.4257J.0178
G3X7.6848Y42.5513I-.1975J3.1293
G2X23.0448Y36.5608I-6.2274J-38.655
G3X15.621Y35.9467I-1.8733J-22.5215
G1X14.5968Y35.7416
G1X13.5725Y35.5365
G2X6.0973Y34.257I-8.8652J29.3046
F150
G1Z1.905
G0Z9.525
G40
M9M5

(* SHAPE NR: 2 *)
G0X-6.0528Y35.1504
M3M8
G42
F400
G1X-5.4127Y35.0527
G2X-6.1392Y34.257I-.7613J-.0343
G0Z1.905
F150
G1Z-.9525
F400
G2X-11.771Y35.0761I-.6839J15.0692
G1X-13.7427Y35.4857
G1X-15.7137Y35.8953
G3X-23.3426Y36.6122I-6.2319J-25.3676
G2X-7.9311Y42.6021I22.4098J-34.8329
G3X-7.2657Y36.3563I.9081J-3.062
G3X-4.8082Y38.916I-.1498J2.6035
G3X-6.2414Y39.0696I-.7201J.0483
G2X-7.3171Y37.9431I-.976J-.1448
G2X-8.6995Y39.5307I.0184J1.4116
G2X-5.9855Y41.5271I2.2676J-.2394
G2X-2.6067Y37.9946I-.1187J-3.4963
G2X-6.1392Y34.257I-4.031J.2718
F150
G1Z-1.905
F400
G2X-11.771Y35.0761I-.6839J15.0692
G1X-13.7427Y35.4857
G1X-15.7137Y35.8953
G3X-23.3426Y36.6122I-6.2319J-25.3676
G2X-7.9311Y42.6021I22.4098J-34.8329
G3X-7.2657Y36.3563I.9081J-3.062
G3X-4.8082Y38.916I-.1498J2.6035
G3X-6.2414Y39.0696I-.7201J.0483
G2X-7.3171Y37.9431I-.976J-.1448
G2X-8.6995Y39.5307I.0184J1.4116
G2X-5.9855Y41.5271I2.2676J-.2394
G2X-2.6067Y37.9946I-.1187J-3.4963
G2X-6.1392Y34.257I-4.031J.2718
F150
G1Z1.905
G0Z9.525
G40
M9M5

(* SHAPE NR: 1 *)
G0X19.0335Y.3416
M3M8
G42
F400
G1X19.1643Y.976
G2X19.9212Y.2089I-.0051J-.762
G0Z1.905
F150
G1Z-.9525
F400
G2X-.1486Y-19.9638I-20.3098J.1359
G2X-20.3219Y.823I.3131J20.4857
G2X.6706Y20.3816I20.1066J-.5359
G2X19.9212Y.2089I-.7372J-19.9758
F150
G1Z-1.905
F400
G2X-.1486Y-19.9638I-20.3098J.1359
G2X-20.3219Y.823I.3131J20.4857
G2X.6706Y20.3816I20.1066J-.5359
G2X19.9212Y.2089I-.7372J-19.9758
F150
G1Z1.905
G0Z9.525
G40
M9M5

(* SHAPE NR: 0 *)
G0X-32.4599Y33.3426
M3M8
G42
F400
G1X-31.9132Y33.6886
G2X-31.9386Y32.6117I-.5512J-.5258
G0Z1.905
F150
G1Z-.9525
F400
G1X-32.0358Y32.519
G1X-32.1329Y32.4256
G1X-32.1856Y32.385
G1X-32.2383Y32.3444
G1X-32.2942Y32.3094
G1X-32.3507Y32.2752
G1X-32.411Y32.2478
G1X-32.472Y32.2206
G1X-32.5374Y32.2028
G1X-32.6028Y32.1843
G1X-32.6015Y32.1812
G1X-32.6009Y32.178
G3X-43.5115Y14.5085I25.8375J-28.1565
G1X-43.5229Y14.4939
G1X-43.535Y14.4793
G1X-43.542Y14.4532
G1X-43.5483Y14.4278
G1X-43.554Y14.3993
G1X-43.5591Y14.3713
G1X-43.568Y14.3484
G1X-43.5769Y14.3256
G1X-43.6372Y14.2335
G1X-43.6975Y14.1414
G1X-43.7312Y14.0913
G1X-43.7654Y14.0411
G1X-43.8036Y13.9922
G1X-43.841Y13.9433
G1X-43.8829Y13.9002
G1X-43.9249Y13.857
G1X-43.9712Y13.8227
G1X-44.0182Y13.7884
G1X-44.0696Y13.7662
G1X-44.1217Y13.7446
G1X-44.1795Y13.7388
G1X-44.2373Y13.7331
G1X-44.2773Y13.7401
G1X-44.3173Y13.7471
G1X-44.3503Y13.7624
G1X-44.3827Y13.7776
G1X-44.4081Y13.8005
G1X-44.4335Y13.8233
G1X-44.4525Y13.8525
G1X-44.4722Y13.8818
G1X-44.4862Y13.916
G1X-44.4995Y13.9509
G1X-44.509Y13.9897
G1X-44.5179Y14.0284
G1X-44.5256Y14.116
G1X-44.5332Y14.2037
G1X-44.5306Y14.297
G1X-44.5287Y14.3904
G1X-44.5237Y14.4818
G1X-44.5179Y14.5732
G1X-44.5154Y14.6552
G1X-44.5129Y14.7371
G1X-44.5192Y14.8019
G1X-44.5256Y14.8666
G3X-53.3603Y31.7475I-16.8612J1.9279
G1X-53.4282Y31.8211
G1X-53.4956Y31.8954
G1X-53.568Y31.9722
G1X-53.641Y32.0485
G1X-53.6715Y32.0897
G1X-53.7026Y32.131
G1X-53.7254Y32.1748
G1X-53.7489Y32.2192
G1X-53.7617Y32.2669
G1X-53.7743Y32.3152
G1X-53.7731Y32.3679
G1X-53.7724Y32.4206
G1X-53.7635Y32.4606
G1X-53.7553Y32.5
G1X-53.7407Y32.5355
G1X-53.7261Y32.5711
G1X-53.7038Y32.6003
G1X-53.6816Y32.6295
G1X-53.6493Y32.6504
G1X-53.6169Y32.672
G1X-53.5711Y32.6847
G1X-53.5254Y32.6981
G1X-53.4785Y32.7006
G1X-53.4321Y32.7025
G1X-53.3387Y32.6936
G1X-53.2448Y32.6841
G1X-53.1476Y32.6739
G1X-53.0511Y32.6637
G1X-53.0022Y32.6637
G1X-52.9539Y32.6637
G1X-52.9057Y32.672
G1X-52.858Y32.6809
G3X-33.4632Y32.9679I9.412J19.3929
G1X-33.3032Y33.0835
G1X-33.1432Y33.1991
G1X-33.0588Y33.2562
G1X-32.9743Y33.3134
G1X-32.8867Y33.3642
G1X-32.799Y33.4156
G1X-32.7082Y33.4562
G1X-32.6174Y33.4969
G1X-32.5228Y33.5229
G1X-32.4288Y33.5496
G1X-32.3806Y33.556
G1X-32.3323Y33.5623
G1X-32.2827Y33.5636
G1X-32.2339Y33.5648
G1X-32.1837Y33.561
G1X-32.1335Y33.5566
G1X-32.0821Y33.5458
G1X-32.0313Y33.535
G1X-31.9849Y33.5172
G1X-31.9386Y33.4988
G1X-31.8986Y33.4721
G1X-31.8592Y33.4454
G1X-31.8269Y33.4118
G1X-31.7951Y33.3775
G1X-31.7703Y33.3382
G1X-31.7462Y33.2981
G1X-31.7309Y33.2543
G1X-31.7151Y33.2105
G1X-31.7094Y33.1635
G1X-31.703Y33.1171
G1X-31.7068Y33.0689
G1X-31.7106Y33.0206
G1X-31.7246Y32.9724
G1X-31.7392Y32.9248
G1X-31.7475Y32.8955
G1X-31.7563Y32.8663
G1X-31.7563Y32.8358
G1X-31.7563Y32.8054
G1X-31.8472Y32.7089
G1X-31.9386Y32.6117
F150
G1Z-1.905
F400
G1X-32.0358Y32.519
G1X-32.1329Y32.4256
G1X-32.1856Y32.385
G1X-32.2383Y32.3444
G1X-32.2942Y32.3094
G1X-32.3507Y32.2752
G1X-32.411Y32.2478
G1X-32.472Y32.2206
G1X-32.5374Y32.2028
G1X-32.6028Y32.1843
G1X-32.6015Y32.1812
G1X-32.6009Y32.178
G3X-43.5115Y14.5085I25.8375J-28.1565
G1X-43.5229Y14.4939
G1X-43.535Y14.4793
G1X-43.542Y14.4532
G1X-43.5483Y14.4278
G1X-43.554Y14.3993
G1X-43.5591Y14.3713
G1X-43.568Y14.3484
G1X-43.5769Y14.3256
G1X-43.6372Y14.2335
G1X-43.6975Y14.1414
G1X-43.7312Y14.0913
G1X-43.7654Y14.0411
G1X-43.8036Y13.9922
G1X-43.841Y13.9433
G1X-43.8829Y13.9002
G1X-43.9249Y13.857
G1X-43.9712Y13.8227
G1X-44.0182Y13.7884
G1X-44.0696Y13.7662
G1X-44.1217Y13.7446
G1X-44.1795Y13.7388
G1X-44.2373Y13.7331
G1X-44.2773Y13.7401
G1X-44.3173Y13.7471
G1X-44.3503Y13.7624
G1X-44.3827Y13.7776
G1X-44.4081Y13.8005
G1X-44.4335Y13.8233
G1X-44.4525Y13.8525
G1X-44.4722Y13.8818
G1X-44.4862Y13.916
G1X-44.4995Y13.9509
G1X-44.509Y13.9897
G1X-44.5179Y14.0284
G1X-44.5256Y14.116
G1X-44.5332Y14.2037
G1X-44.5306Y14.297
G1X-44.5287Y14.3904
G1X-44.5237Y14.4818
G1X-44.5179Y14.5732
G1X-44.5154Y14.6552
G1X-44.5129Y14.7371
G1X-44.5192Y14.8019
G1X-44.5256Y14.8666
G3X-53.3603Y31.7475I-16.8612J1.9279
G1X-53.4282Y31.8211
G1X-53.4956Y31.8954
G1X-53.568Y31.9722
G1X-53.641Y32.0485
G1X-53.6715Y32.0897
G1X-53.7026Y32.131
G1X-53.7254Y32.1748
G1X-53.7489Y32.2192
G1X-53.7617Y32.2669
G1X-53.7743Y32.3152
G1X-53.7731Y32.3679
G1X-53.7724Y32.4206
G1X-53.7635Y32.4606
G1X-53.7553Y32.5
G1X-53.7407Y32.5355
G1X-53.7261Y32.5711
G1X-53.7038Y32.6003
G1X-53.6816Y32.6295
G1X-53.6493Y32.6504
G1X-53.6169Y32.672
G1X-53.5711Y32.6847
G1X-53.5254Y32.6981
G1X-53.4785Y32.7006
G1X-53.4321Y32.7025
G1X-53.3387Y32.6936
G1X-53.2448Y32.6841
G1X-53.1476Y32.6739
G1X-53.0511Y32.6637
G1X-53.0022Y32.6637
G1X-52.9539Y32.6637
G1X-52.9057Y32.672
G1X-52.858Y32.6809
G3X-33.4632Y32.9679I9.412J19.3929
G1X-33.3032Y33.0835
G1X-33.1432Y33.1991
G1X-33.0588Y33.2562
G1X-32.9743Y33.3134
G1X-32.8867Y33.3642
G1X-32.799Y33.4156
G1X-32.7082Y33.4562
G1X-32.6174Y33.4969
G1X-32.5228Y33.5229
G1X-32.4288Y33.5496
G1X-32.3806Y33.556
G1X-32.3323Y33.5623
G1X-32.2827Y33.5636
G1X-32.2339Y33.5648
G1X-32.1837Y33.561
G1X-32.1335Y33.5566
G1X-32.0821Y33.5458
G1X-32.0313Y33.535
G1X-31.9849Y33.5172
G1X-31.9386Y33.4988
G1X-31.8986Y33.4721
G1X-31.8592Y33.4454
G1X-31.8269Y33.4118
G1X-31.7951Y33.3775
G1X-31.7703Y33.3382
G1X-31.7462Y33.2981
G1X-31.7309Y33.2543
G1X-31.7151Y33.2105
G1X-31.7094Y33.1635
G1X-31.703Y33.1171
G1X-31.7068Y33.0689
G1X-31.7106Y33.0206
G1X-31.7246Y32.9724
G1X-31.7392Y32.9248
G1X-31.7475Y32.8955
G1X-31.7563Y32.8663
G1X-31.7563Y32.8358
G1X-31.7563Y32.8054
G1X-31.8472Y32.7089
G1X-31.9386Y32.6117
F150
G1Z1.905
G0Z9.525
G40
M9M5

(* SHAPE NR: 88 *)
G0X47.0998Y12.1983
M3M8
G41
F400
G1X46.8916Y12.8118
G3X46.235Y11.9571I.0991J-.7556
G0Z1.905
F150
G1Z-.9525
F400
G3X50.9041Y1.5411I19.7041J2.5781
G3X56.1842Y-2.6251I8.2982J5.0876
G3X59.3083Y-2.5889I1.4669J8.3204
G3X61.1404Y1.3259I-.4699J2.6061
G2X64.8399Y-3.128I-.7753J-4.4069
G2X72.9386Y-4.7079I2.4822J-8.8227
G2X72.9748Y-5.3727I-.294J-.3492
G2X67.9825Y-8.2099I-7.1241J6.724
G3X67.0484Y-8.4252I-.0762J-1.8002
G2X64.9294Y-8.4252I-1.0598J1.8097
G3X63.4568Y-8.0302I-1.4916J-2.6187
G3X62.9723Y-8.5154I-.1105J-.374
G2X59.4525Y-10.8496I-3.7713J1.8656
G3X59.9193Y-12.7534I3.9357J-.0438
G2X59.4163Y-28.1616I-16.9729J-7.1583
G2X44.0443Y-43.3902I-26.5436J11.4211
G3X40.6324Y-45.7244I.4991J-4.3904
G2X39.4291Y-46.2001I-.9309J.5943
G3X38.9439Y-46.7303I-.0794J-.414
G2X37.5793Y-50.3218I-3.1166J-.8706
G3X37.364Y-52.2071I.689J-1.0338
G2X39.5903Y-55.8889I-3.3306J-4.5288
G2X39.6628Y-60.8095I-10.4159J-2.613
G3X39.1776Y-62.4256I3.3788J-1.8948
G2X38.441Y-62.7488I-.4445J.0127
G2X33.6645Y-57.4688I9.0417J12.9813
G2X33.0721Y-56.0686I3.3503J2.2434
G3X31.797Y-55.6552I-.7982J-.2902
G2X31.1861Y-55.9962I-32.5494J57.5291
G2X29.7136Y-55.9429I-.7036J.9246
G3X28.8874Y-55.6374I-.7074J-.6439
G2X26.3912Y-53.7699I3.4684J7.2377
G3X29.229Y-52.5126I.2178J3.3388
G3X28.9414Y-49.3522I-3.1807J1.3043
G3X22.9972Y-45.7962I-7.8949J-6.4516
G3X21.0579Y-46.2629I-.5702J-1.8923
G2X22.4942Y-49.9624I-1.6173J-2.7565
G2X22.2428Y-50.1783I-.9068J.8039
G3X22.4765Y-51.4172I.6521J-.5188
G2X25.5111Y-56.1759I-2.3857J-4.8685
G3X25.6369Y-57.846I46.5709J2.6657
G3X26.0051Y-58.6365I.9658J-.0311
G2X26.0051Y-59.7408I-.5607J-.5525
G2X25.3136Y-60.405I-1.7666J1.1462
G2X25.0266Y-60.2348I-.0565J.2324
G3X22.6562Y-59.1395I-3.0639J-3.5173
G2X20.5727Y-57.343I2.6061J5.1289
G3X19.5491Y-57.3792I-.489J-.6648
G2X16.155Y-58.2231I-2.1317J1.3253
G2X16.0833Y-57.9628I.0356J.1498
G3X16.4967Y-57.5589I-.9354J1.3691
G3X16.5684Y-53.1768I-4.0348J2.2574
G3X14.5212Y-51.5429I-2.9229J-1.5621
G3X10.9296Y-51.7226I-1.5386J-5.2324
G3X5.9728Y-55.9607I2.9083J-8.4188
G2X5.2184Y-58.0796I-2.7432J-.2172
G3X6.8351Y-63.6467I6.9412J-1.0027
G3X9.852Y-65.4063I5.5258J6.0071
G3X12.761Y-64.3293I.8515J2.1679
G3X11.0014Y-63.8982I-1.1348J-.8261
G2X8.7382Y-62.7844I-.7772J1.2764
G2X8.8462Y-61.0248I1.9317J.7652
G2X10.6064Y-59.3008I2.4574J-.748
G2X12.6892Y-59.3725I.9792J-1.8504
G2X15.0241Y-62.7126I-2.272J-4.0742
G2X13.982Y-66.3042I-4.1484J-.7436
G2X12.1863Y-67.3818I-2.2987J1.7958
G3X12.079Y-68.7108I.7753J-.7315
G2X15.5264Y-71.0095I-6.55J-13.5598
G3X16.8199Y-71.2432I1.6529J5.4585
G2X18.1667Y-71.0991I10.1124J-88.4168
G2X18.274Y-71.656I.0203J-.2851
G2X15.4368Y-72.4643I-2.5101J3.4271
G3X16.1735Y-73.1285I.849J.2007
G2X16.7481Y-73.9724I-.2318J-.7753
G3X17.4301Y-74.7986I1.3671J.4343
G2X17.5203Y-75.7326I-.3385J-.5035
G2X13.8563Y-75.3732I-1.343J5.1657
G2X12.8149Y-73.7394I3.2341J3.2106
G3X11.8815Y-71.7455I-4.1662J-.736
G3X10.8217Y-72.4459I-.4737J-.435
G2X11.9348Y-74.1699I-9.0062J-7.0377
G2X11.7557Y-76.0381I-1.9152J-.7582
G3X10.193Y-75.0862I-1.9742J-1.4821
G3X9.4571Y-75.2297I-.0648J-1.6275
G2X9.1694Y-76.7023I-1.8841J-.3969
G2X8.3973Y-77.1335I-.9957J.877
G2X7.1044Y-76.0019I2.0682J3.6684
G2X6.1347Y-73.5952I3.1744J2.6778
G3X5.4699Y-71.6204I-6.1335J-.9633
G3X4.4647Y-72.0871I-.4979J-.2438
G3X5.3086Y-75.4094I6.7221J-.0603
G3X8.6125Y-78.6238I5.5398J2.3889
G2X10.0946Y-79.2162I-6.8713J-19.3262
G2X10.1213Y-80.0964I-.1403J-.4445
G2X7.8314Y-80.7066I-1.7844J2.0923
G2X7.1044Y-85.2684I-7.2917J-1.176
G2X5.1829Y-83.7775I.7391J2.9369
G3X3.5306Y-81.9283I-2.8435J-.877
G3X3.7459Y-83.8314I4.6171J-.4413
G2X3.6741Y-86.0584I-2.5902J-1.0312
G2X2.3095Y-85.5199I-.3569J1.0941
G3X1.8339Y-85.6094I-.2191J-.1448
G3X1.9501Y-86.3098I31.0629J4.8171
G2X.1187Y-90.1529I-4.8222J-.0597
G2X-2.1082Y-85.6634I2.3343J3.9548
G3X-2.5032Y-85.8431I-.021J-.4775
G2X-3.796Y-85.699I-.5677J.7817
G2X-3.904Y-84.0829I1.0122J.8795
G3X-3.9757Y-82.1614I-6.8161J.7074
G3X-4.5866Y-82.0896I-.3105J-.0108
G2X-6.2744Y-84.8735I-6.7234J2.1736
G2X-7.6753Y-83.9756I-.494J.7709
G2X-7.7648Y-80.7606I22.5666J2.239
G3X-9.4171Y-80.7066I-.896J-2.1089
G2X-10.5486Y-79.7192I.6039J1.8339
G2X-9.4348Y-78.7851I1.7323J-.9347
G3X-8.2677Y-78.3901I-.1975J2.5064
G3X-5.8795Y-76.3791I-1.8714J4.6463
G3X-4.5504Y-73.3082I-5.4407J4.1776
G3X-4.6044Y-71.4762I-3.0423J.8274
G3X-5.4127Y-71.261I-.4813J-.181
G3X-6.2566Y-73.5235I2.6016J-2.2593
G2X-7.5133Y-76.3969I-3.9008J-.0051
G2X-8.4836Y-76.9893I-1.0211J.581
G2X-9.6507Y-74.9243I.0413J1.3856
G3X-11.3748Y-75.6964I.0737J-2.4759
G2X-12.3082Y-74.6373I-.3143J.6642
G3X-11.644Y-73.4162I-1.0769J1.3773
G2X-10.7823Y-72.5183I2.5673J-1.6021
G3X-11.7335Y-71.7639I-.5016J.3448
G3X-12.8829Y-73.8651I1.6408J-2.2625
G2X-13.763Y-75.2837I-1.865J.1746
G2X-17.3006Y-75.9124I-2.7819J5.3886
G2X-16.2592Y-73.272I2.2143J.6515
G3X-16.7259Y-72.1049I-.8547J.3353
G2X-18.5579Y-70.9917I-.5715J1.1227
G3X-15.7747Y-70.9016I1.3081J2.6397
G3X-12.3984Y-68.8187I-13.85J26.2236
G3X-12.4523Y-67.4002I-.4128J.6947
G2X-15.2Y-63.4314I1.411J3.9122
G2X-13.4937Y-59.8754I3.6608J.4305
G2X-9.7765Y-59.8932I1.8504J-1.785
G2X-9.812Y-63.8804I-1.35J-1.9812
G2X-12.4523Y-63.7902I-1.2592J1.8294
G3X-12.8473Y-64.3293I-.0997J-.341
G3X-10.4769Y-65.5504I2.1488J1.2599
G3X-6.2027Y-62.7488I-1.7977J7.4035
G3X-6.2027Y-55.9962I-7.653J3.3763
G3X-13.2061Y-51.5067I-7.2117J-3.5426
G3X-17.0853Y-54.1287I-.1498J-3.958
G3X-17.1215Y-56.5531I4.3745J-1.277
G3X-16.3671Y-57.6307I1.2707J.087
G2X-16.6002Y-58.3851I-.2527J-.3347
G2X-18.001Y-58.439I-.8712J4.4088
G2X-20.2641Y-56.4096I.5061J2.8403
G2X-23.2092Y-59.3725I-5.8623J2.8816
G2X-23.9992Y-59.6957I-.7182J.6287
G3X-25.4895Y-60.3783I.3607J-2.7565
G2X-25.9569Y-60.2704I-.181J.2813
G2X-25.6692Y-57.056I6.5729J1.0325
G3X-25.454Y-55.8889I-2.0561J.983
G2X-22.4371Y-51.2737I5.2826J-.1594
G3X-22.4549Y-49.8551I-.5505J.7023
G2X-22.3831Y-47.646I1.2122J1.0661
G3X-21.0903Y-45.3834I-1.865J2.5667
G3X-22.0059Y-45.2933I-.6287J-1.6954
G3X-29.297Y-49.7827I1.2649J-10.2197
G3X-29.3687Y-52.2973I3.4411J-1.3563
G3X-27.5368Y-53.8239I2.4365J1.0617
G2X-27.4828Y-54.7751I-.2343J-.4909
G3X-28.6322Y-55.3682I.2984J-1.9894
G2X-29.1173Y-55.6552I-.3886J.1035
G3X-30.1409Y-55.9784I-.2337J-1.0433
G2X-32.1881Y-55.5295I-.7912J1.284
G3X-32.9241Y-55.6552I-.3512J-.1632
G3X-33.3553Y-56.4991I2.9058J-2.0155
G2X-35.7619Y-60.0907I-8.6538J3.196
G3X-38.5813Y-62.8205I8.6919J-11.799
G2X-39.21Y-62.6231I-.2451J.3201
G2X-39.497Y-60.8813I1.9456J1.2154
G3X-39.7847Y-59.6601I-2.3939J.0813
G2X-39.6405Y-56.0686I3.3039J1.6662
G2X-39.4075Y-55.045I1.1405J.2781
G3X-38.8867Y-53.8416I-1.745J1.4694
G2X-36.5881Y-51.2197I5.4458J-2.4562
G3X-37.0186Y-50.8248I-1.4294J-1.1265
G2X-38.8506Y-49.3522I3.361J6.0566
G2X-38.8867Y-47.4123I7.6841J1.1125
G3X-39.7485Y-46.1556I-1.3233J.0165
G3X-40.7543Y-46.1912I-.1975J-8.5661
G3X-43.6994Y-43.4258I-3.9135J-1.2167
G2X-58.8918Y-29.8132I10.5035J27.0072
G2X-59.8799Y-12.3044I19.0144J9.8552
G3X-60.0589Y-10.814I-1.0725J.6267
G3X-61.3524Y-10.3111I-1.3481J-1.5532
G2X-63.2377Y-8.1204I.7861J2.5838
G3X-65.123Y-8.2994I-.7582J-2.0307
G2X-67.7812Y-8.3357I-1.3595J2.2358
G2X-73.1145Y-5.2286I3.9904J12.9819
G2X-73.2942Y-4.6901I.0597J.3194
G3X-72.3786Y-4.4209I.0921J1.3779
G2X-71.8394Y-4.0977I.489J-.2045
G3X-70.9238Y-3.7744I.1524J1.0268
G2X-69.7922Y-3.361I.955J-.8604
G3X-68.5356Y-2.8943I-.0299J2.0066
G2X-66.6318Y-2.8582I.9925J-2.1482
G3X-65.285Y-2.9299I.8008J2.3463
G3X-64.6741Y-2.3374I-.0546J.6674
G2X-64.3871Y-1.2065I1.4573J.2318
G2X-62.2052Y.8503I4.7047J-2.8067
G2X-61.4058Y.7157I.2553J-.9233
G3X-60.1129Y-2.1222I2.0301J-.788
G3X-55.6597Y-2.2301I2.3196J3.7789
G3X-49.8767Y2.942I-5.475J11.9399
G2X-48.5839Y5.3124I5.1841J-1.2897
G3X-46.501Y11.0954I-12.4149J7.7387
G3X-47.7222Y11.1671I-.6299J-.2966
G2X-50.3441Y5.5283I-13.6925J2.9375
G2X-51.529Y4.8095I-1.3767J.9341
G3X-53.3521Y3.4271I1.5075J-3.8798
G2X-53.7559Y3.5528I-.1689J.1702
G2X-53.4327Y7.0726I6.8498J1.1455
G2X-54.6894Y6.498I-2.4924J3.7897
G2X-55.8927Y6.498I-.6014J.8909
G3X-57.545Y6.839I-1.4796J-2.9921
G2X-57.1322Y7.9883I1.2922J.1841
G3X-56.4496Y8.9402I-1.6573J1.9088
G2X-54.3306Y10.4845I3.2334J-2.2104
G3X-53.7197Y11.6339I-.2362J.8623
G3X-54.6176Y12.4962I-.8458J.0178
G2X-52.6783Y14.5789I2.6511J-.5239
G3X-51.2057Y14.184I1.4433J2.4378
G3X-48.62Y15.8718I-.9589J4.2933
G3X-48.1171Y21.978I-6.583J3.6157
G3X-55.5517Y29.4126I-10.8839J-3.4493
G3X-60.5079Y28.0835I-1.2929J-5.0851
G3X-61.6217Y25.1746I1.6497J-2.2993
G3X-59.8615Y24.5999I1.0084J.1067
G2X-60.2209Y26.216I1.9132J1.2732
G2X-58.3889Y27.7965I1.6599J-.0724
G2X-56.1619Y26.2877I.0184J-2.3705
G2X-56.0902Y24.7072I-1.7107J-.8693
G2X-58.4251Y22.6244I-3.0874J1.11
G2X-60.5796Y22.6244I-1.0776J2.7832
G2X-63.058Y24.4557I1.1252J4.1142
G2X-63.2917Y28.0295I3.5274J2.025
G2X-59.8615Y31.8186I5.0044J-1.0827
G3X-58.1374Y32.5907I-.1771J2.7064
G3X-58.1019Y34.4405I-1.3037J.9506
G2X-58.1197Y35.4825I.1829J.5239
G3X-57.9762Y35.8597I-.2585J.3143
G2X-56.7906Y37.3856I2.0853J-.3956
G3X-56.809Y38.9839I-.6413J.7918
G2X-59.2512Y41.9475I4.0647J5.8382
G2X-59.7897Y47.6936I9.7631J3.8138
G3X-59.3052Y49.1128I-9.0469J3.8843
G2X-59.0715Y49.7408I1.136J-.0641
G3X-57.2395Y48.5915I2.9509J2.6689
G2X-52.1399Y42.3424I-8.5281J-12.1653
G2X-51.3493Y43.3661I.9614J.0749
G2X-50.5232Y43.42I.6464J-3.5528
G2X-47.0935Y42.091I0J-5.0914
G2X-47.0573Y41.3544I-.2585J-.3817
G3X-48.5483Y40.6184I-.0902J-1.6935
G3X-48.5483Y36.9551I4.0469J-1.832
G3X-41.167Y33.4353I8.0162J7.3108
G3X-40.5028Y34.4944I.0553J.7036
G2X-41.9036Y36.4522I2.1222J2.9985
